!!!COM:	Brumel, Antoine
!!!CDT:	~1460-~1512
!!!OPR:	Missa Et ecce terre motus
!!!ONM:	1
!!!OTL:	Kyrie
!!!AGN:	Mass; Kyrie
!!!SCT:	Bru1008a
!!!SCA:	Bru1008a
!!!voices:	12
!!!voices-OPR:	12
**kern	**text	**kern	**text	**kern	**text	**kern	**text	**kern	**text	**kern	**text	**kern	**text	**kern	**text	**kern	**text	**kern	**text	**kern	**text	**kern	**text
*staff12	*staff12	*staff11	*staff11	*staff10	*staff10	*staff9	*staff9	*staff8	*staff8	*staff7	*staff7	*staff6	*staff6	*staff5	*staff5	*staff4	*staff4	*staff3	*staff3	*staff2	*staff2	*staff1	*staff1
*Ivox	*	*Ivox	*	*Ivox	*	*Ivox	*	*Ivox	*	*Ivox	*	*Ivox	*	*Ivox	*	*Ivox	*	*Ivox	*	*Ivox	*	*Ivox	*
*I"Bassus3	*	*I"Bassus2	*	*I"Bassus1	*	*I"Tenor3	*	*I"Tenor2	*	*I"Tenor1	*	*I"Contratenor3	*	*I"Contratenor2	*	*I"Contratenor1	*	*I"Discantus3	*	*I"Discantus2	*	*I"Discantus1	*
*I'B3	*	*I'B2	*	*I'B1	*	*I'T3	*	*I'T2	*	*I'T1	*	*I'Ct3	*	*I'Ct2	*	*I'Ct1	*	*I'D3	*	*I'D2	*	*I'D1	*
*>[A,B,C]	*>[A,B,C]	*>[A,B,C]	*>[A,B,C]	*>[A,B,C]	*>[A,B,C]	*>[A,B,C]	*>[A,B,C]	*>[A,B,C]	*>[A,B,C]	*>[A,B,C]	*>[A,B,C]	*>[A,B,C]	*>[A,B,C]	*>[A,B,C]	*>[A,B,C]	*>[A,B,C]	*>[A,B,C]	*>[A,B,C]	*>[A,B,C]	*>[A,B,C]	*>[A,B,C]	*>[A,B,C]	*>[A,B,C]
*>A	*>A	*>A	*>A	*>A	*>A	*>A	*>A	*>A	*>A	*>A	*>A	*>A	*>A	*>A	*>A	*>A	*>A	*>A	*>A	*>A	*>A	*>A	*>A
*clefF4	*	*clefF4	*	*clefF4	*	*clefGv2	*	*clefGv2	*	*clefGv2	*	*clefGv2	*	*clefGv2	*	*clefGv2	*	*clefG2	*	*clefG2	*	*clefG2	*
*k[]	*	*k[]	*	*k[]	*	*k[]	*	*k[]	*	*k[]	*	*k[]	*	*k[]	*	*k[]	*	*k[]	*	*k[]	*	*k[]	*
*M3/1	*	*M3/1	*	*M3/1	*	*M3/1	*	*M3/1	*	*M3/1	*	*M3/1	*	*M3/1	*	*M3/1	*	*M3/1	*	*M3/1	*	*M3/1	*
*met(O)	*	*met(O)	*	*met(O)	*	*met(O)	*	*met(O)	*	*met(O)	*	*met(O)	*	*met(O)	*	*met(O)	*	*met(O)	*	*met(O)	*	*met(O)	*
!!section: Kyrie I
!!!OMD: Kyrie I
=1-	=1-	=1-	=1-	=1-	=1-	=1-	=1-	=1-	=1-	=1-	=1-	=1-	=1-	=1-	=1-	=1-	=1-	=1-	=1-	=1-	=1-	=1-	=1-
0.r	.	0.r	.	1.G	Ky-	0.r	.	0.r	.	0.r	.	0.r	.	1d	Ky-	1r	.	0.r	.	0.r	.	0.r	.
.	.	.	.	.	.	.	.	.	.	.	.	.	.	2d	-ri-	1r	.	.	.	.	.	.	.
.	.	.	.	2G	-ri-	.	.	.	.	.	.	.	.	1B	-e	.	.	.	.	.	.	.	.
.	.	.	.	1G	-e	.	.	.	.	.	.	.	.	.	.	1d	Ky-	.	.	.	.	.	.
.	.	.	.	.	.	.	.	.	.	.	.	.	.	2G	e-	.	.	.	.	.	.	.	.
=2	=2	=2	=2	=2	=2	=2	=2	=2	=2	=2	=2	=2	=2	=2	=2	=2	=2	=2	=2	=2	=2	=2	=2
0.r	.	0.r	.	2F	e-	0.r	.	0.r	.	0.r	.	1r	.	2A	.	1d	-ri-	0.r	.	0.r	.	0.r	.
.	.	.	.	1G	-lei-	.	.	.	.	.	.	.	.	1B	-lei-	.	.	.	.	.	.	.	.
.	.	.	.	.	.	.	.	.	.	.	.	2r	.	.	.	1B	-e	.	.	.	.	.	.
.	.	.	.	4F	.	.	.	.	.	.	.	2G	Ky-	4A	.	.	.	.	.	.	.	.	.
.	.	.	.	4E	.	.	.	.	.	.	.	.	.	4G	.	.	.	.	.	.	.	.	.
.	.	.	.	1D	.	.	.	.	.	.	.	2A	-ri-	1F	-son,	1d	e-	.	.	.	.	.	.
.	.	.	.	.	.	.	.	.	.	.	.	2B	-e e-	.	.	.	.	.	.	.	.	.	.
=3	=3	=3	=3	=3	=3	=3	=3	=3	=3	=3	=3	=3	=3	=3	=3	=3	=3	=3	=3	=3	=3	=3	=3
0.r	.	0.r	.	1C	-son,	0.r	.	0.r	.	0.r	.	1.c	-lei-	1G	Ky-	1.e	-lei-	1r	.	1r	.	2r	.
.	.	.	.	.	.	.	.	.	.	.	.	.	.	.	.	.	.	.	.	.	.	2g	Ky-
.	.	.	.	1r	.	.	.	.	.	.	.	.	.	2C	-ri-	.	.	1r	.	2r	.	2a	-ri-
.	.	.	.	.	.	.	.	.	.	.	.	2B	.	2G	-e e-	1d	.	.	.	2d	Ky-	2b	-e e-
.	.	.	.	1r	.	.	.	.	.	.	.	1A	.	2c	-lei-	.	.	2r	.	2e	-ri-	1cc	-lei-
.	.	.	.	.	.	.	.	.	.	.	.	.	.	2A	.	2c	.	2a	Ky-	2f	-e e-	.	.
=4	=4	=4	=4	=4	=4	=4	=4	=4	=4	=4	=4	=4	=4	=4	=4	=4	=4	=4	=4	=4	=4	=4	=4
0.r	.	0GG	Ky-	0D	Ky-	0d	Ky-	0.r	.	0.r	.	0G	-son,	2D	-son,	2d	-son,	2.b	-ri-	2.g	-lei-	2b	-son,
.	.	.	.	.	.	.	.	.	.	.	.	.	.	1B	Ky-	2.g	Ky-	.	.	.	.	4g	Ky-
.	.	.	.	.	.	.	.	.	.	.	.	.	.	.	.	.	.	4cc	.	8fL	.	4a	.
.	.	.	.	.	.	.	.	.	.	.	.	.	.	.	.	.	.	.	.	8eJ	.	.	.
.	.	.	.	.	.	.	.	.	.	.	.	.	.	.	.	.	.	2.dd	-e e-	2d	-son,	4b	.
.	.	.	.	.	.	.	.	.	.	.	.	.	.	.	.	8fL	.	.	.	.	.	4cc	.
.	.	.	.	.	.	.	.	.	.	.	.	.	.	.	.	8eJ	.	.	.	.	.	.	.
.	.	.	.	.	.	.	.	.	.	.	.	.	.	2G	-ri-	2.d	-ri-	.	.	1g	Ky-	2.dd	-ri-
.	.	.	.	.	.	.	.	.	.	.	.	.	.	.	.	.	.	8ccL	.	.	.	.	.
.	.	.	.	.	.	.	.	.	.	.	.	.	.	.	.	.	.	8bJ	.	.	.	.	.
.	.	1D	-ri-	2.F	-ri-	1d	-ri-	.	.	.	.	2r	.	1A	-e	.	.	2a	.	.	.	.	.
.	.	.	.	.	.	.	.	.	.	.	.	.	.	.	.	4e	.	.	.	.	.	8ccL	.
.	.	.	.	.	.	.	.	.	.	.	.	.	.	.	.	.	.	.	.	.	.	8bJ	.
.	.	.	.	.	.	.	.	.	.	.	.	2D	e-	.	.	2f	-e	[2dd	-lei-	2f#i	-ri-	2a	.
.	.	.	.	4E	.	.	.	.	.	.	.	.	.	.	.	.	.	.	.	.	.	.	.
=5	=5	=5	=5	=5	=5	=5	=5	=5	=5	=5	=5	=5	=5	=5	=5	=5	=5	=5	=5	=5	=5	=5	=5
0.r	.	1GG	-e	1D	-e	1B	.	0.r	.	0.r	.	2D	-lei-	2G	e-	2r	.	4dd]	.	2.g	-e,	1b	-e
.	.	.	.	.	.	.	.	.	.	.	.	.	.	.	.	.	.	4g	.	.	.	.	.
.	.	.	.	.	.	.	.	.	.	.	.	2.G	.	2.B	-lei-	2d	e-	1.g	-son,	.	.	.	.
.	.	.	.	.	.	.	.	.	.	.	.	.	.	.	.	.	.	.	.	4a	.	.	.
.	.	2r	.	2GG	e-	1d	-e	.	.	.	.	.	.	.	.	4d	-lei-	.	.	4b	.	2r	.
.	.	.	.	.	.	.	.	.	.	.	.	8FL	.	4A	.	2B	.	.	.	4cc	.	.	.
.	.	.	.	.	.	.	.	.	.	.	.	8EJ	.	.	.	.	.	.	.	.	.	.	.
.	.	2GG	e-	2.G	-lei-	.	.	.	.	.	.	2D	.	4G	.	.	.	.	.	2dd	.	2b	e-
.	.	.	.	.	.	.	.	.	.	.	.	.	.	4F	.	4G	.	.	.	.	.	.	.
.	.	2.C	-lei-	.	.	1e	e-	.	.	.	.	2C	-son,	2G	.	1G	-son,	2.e	Ky-	1g	.	2.cc	-lei-
.	.	.	.	4F	.	.	.	.	.	.	.	.	.	.	.	.	.	.	.	.	.	.	.
.	.	.	.	2G	.	.	.	.	.	.	.	[2c	Ky-	2C	.	.	.	.	.	.	.	.	.
.	.	4D	.	.	.	.	.	.	.	.	.	.	.	.	.	.	.	4f	-ri-	.	.	8bL	.
.	.	.	.	.	.	.	.	.	.	.	.	.	.	.	.	.	.	.	.	.	.	8aJ	.
=6	=6	=6	=6	=6	=6	=6	=6	=6	=6	=6	=6	=6	=6	=6	=6	=6	=6	=6	=6	=6	=6	=6	=6
0.r	.	2E	.	2C	.	2e	-lei-	0.r	.	0.r	.	2c]	.	2G	-son,	2r	.	2g	-e,	1r	.	2g	.
.	.	2F	.	2D	.	1d	.	.	.	.	.	2A	-ri-	2r	.	2A	Ky-	2d	.	.	.	4f	.
.	.	.	.	.	.	.	.	.	.	.	.	.	.	.	.	.	.	.	.	.	.	2a	.
.	.	2G	.	2GG	.	.	.	.	.	.	.	2B	-e	2G	Ky-	2d	-ri-	1r	.	1g	.	.	.
.	.	.	.	.	.	.	.	.	.	.	.	.	.	.	.	.	.	.	.	.	.	4g	.
.	.	2E	.	2G	-son,	2c	.	.	.	.	.	2G	e-	2C	-ri-	2e	.	.	.	.	.	1g	.
.	.	1D	-son,	2r	.	1d	-son,	.	.	.	.	1A	-lei-	2.F	-e	4f	-e	1a	Ky-	1dd	.	.	.
.	.	.	.	.	.	.	.	.	.	.	.	.	.	.	.	4e	.	.	.	.	.	.	.
.	.	.	.	2D	Ky-	.	.	.	.	.	.	.	.	.	.	4d	.	.	.	.	.	2f#i	.
.	.	.	.	.	.	.	.	.	.	.	.	.	.	4E	e-	4c	.	.	.	.	.	.	.
=7	=7	=7	=7	=7	=7	=7	=7	=7	=7	=7	=7	=7	=7	=7	=7	=7	=7	=7	=7	=7	=7	=7	=7
0.D	Ky-	0.GG	Ky-	1D	-ri-	0d	Ky-	0.r	.	0.r	.	1G	-son,	1D	-lei-	2.B	e-	2.b	.	2r	.	1g	-son,
.	.	.	.	.	.	.	.	.	.	.	.	.	.	.	.	.	.	.	.	2.dd	Ky-	.	.
.	.	.	.	.	.	.	.	.	.	.	.	.	.	.	.	4c	.	4g	-ri-	.	.	.	.
.	.	.	.	0BB	-e	.	.	.	.	.	.	2.B	e-	0G	-son,	2d	.	1g	-e,	.	.	2r	.
.	.	.	.	.	.	.	.	.	.	.	.	.	.	.	.	.	.	.	.	4cc	-ri-	.	.
.	.	.	.	.	.	.	.	.	.	.	.	.	.	.	.	2.d	-lei-	.	.	4b	.	2d	Ky-
.	.	.	.	.	.	.	.	.	.	.	.	4c	.	.	.	.	.	.	.	4a	.	.	.
.	.	.	.	.	.	2.B	-ri-	.	.	.	.	2d	.	.	.	.	.	2r	.	1g	-e,	2.g	-ri-
.	.	.	.	.	.	.	.	.	.	.	.	.	.	.	.	4c	.	.	.	.	.	.	.
.	.	.	.	.	.	.	.	.	.	.	.	[2d	-lei-	.	.	4B	.	2d	Ky-	.	.	.	.
.	.	.	.	.	.	4c	.	.	.	.	.	.	.	.	.	4A	.	.	.	.	.	4a	.
=8	=8	=8	=8	=8	=8	=8	=8	=8	=8	=8	=8	=8	=8	=8	=8	=8	=8	=8	=8	=8	=8	=8	=8
0.D	-ri-	[0.GG	-ri-	2.B	e-	2d	-e e-	0.r	.	0.r	.	4d]	.	1r	.	2.G	.	2.g	-ri-	2r	.	1b	-e
.	.	.	.	.	.	.	.	.	.	.	.	4c	.	.	.	.	.	.	.	.	.	.	.
.	.	.	.	.	.	2.d	-lei-	.	.	.	.	4B	.	.	.	.	.	.	.	2d	Ky-	.	.
.	.	.	.	4c	.	.	.	.	.	.	.	4A	.	.	.	8FL	.	4a	.	.	.	.	.
.	.	.	.	.	.	.	.	.	.	.	.	.	.	.	.	8EJ	.	.	.	.	.	.	.
.	.	.	.	2d	.	.	.	.	.	.	.	2.G	.	2.B	e-	1D	-son,	1b	-e,	2.g	-ri-	1r	.
.	.	.	.	.	.	4c	.	.	.	.	.	.	.	.	.	.	.	.	.	.	.	.	.
.	.	.	.	2.d	-lei-	4B	.	.	.	.	.	.	.	.	.	.	.	.	.	.	.	.	.
.	.	.	.	.	.	4A	.	.	.	.	.	8FL	.	4c	.	.	.	.	.	4a	.	.	.
.	.	.	.	.	.	.	.	.	.	.	.	8EJ	.	.	.	.	.	.	.	.	.	.	.
.	.	.	.	.	.	2.G	.	.	.	.	.	1D	-son,	2d	.	2.G	Ky-	1r	.	1b	-e,	2.b	e-
.	.	.	.	4c	.	.	.	.	.	.	.	.	.	.	.	.	.	.	.	.	.	.	.
.	.	.	.	4B	.	.	.	.	.	.	.	.	.	[2d	-lei-	.	.	.	.	.	.	.	.
.	.	.	.	4A	.	8FL	.	.	.	.	.	.	.	.	.	4A	-ri-	.	.	.	.	4cc	.
.	.	.	.	.	.	8EJ	.	.	.	.	.	.	.	.	.	.	.	.	.	.	.	.	.
=9	=9	=9	=9	=9	=9	=9	=9	=9	=9	=9	=9	=9	=9	=9	=9	=9	=9	=9	=9	=9	=9	=9	=9
0.BB	.	0.GG]	.	2.G	.	1D	-son,	0.r	.	0.d	Ky-	2.G	Ky-	4d]	.	1B	-e,	2.b	e-	1r	.	2dd	.
.	.	.	.	.	.	.	.	.	.	.	.	.	.	4c	.	.	.	.	.	.	.	.	.
.	.	.	.	.	.	.	.	.	.	.	.	.	.	4B	.	.	.	.	.	.	.	2.dd	-lei-
.	.	.	.	8FL	.	.	.	.	.	.	.	4A	-ri-	4A	.	.	.	4cc	.	.	.	.	.
.	.	.	.	8EJ	.	.	.	.	.	.	.	.	.	.	.	.	.	.	.	.	.	.	.
.	.	.	.	1D	.	2.G	Ky-	.	.	.	.	1B	-e	2.G	.	2r	.	2dd	.	2.b	e-	.	.
.	.	.	.	.	.	.	.	.	.	.	.	.	.	.	.	.	.	.	.	.	.	4cc	.
.	.	.	.	.	.	.	.	.	.	.	.	.	.	.	.	1.g	Ky-	2.dd	-lei-	.	.	4b	.
.	.	.	.	.	.	4A	-ri-	.	.	.	.	.	.	8FL	.	.	.	.	.	4cc	.	4a	.
.	.	.	.	.	.	.	.	.	.	.	.	.	.	8EJ	.	.	.	.	.	.	.	.	.
.	.	.	.	1G	-son,	2B	-e	.	.	.	.	2r	.	1D	.	.	.	.	.	2dd	.	2.g	.
.	.	.	.	.	.	.	.	.	.	.	.	.	.	.	.	.	.	4cc	.	.	.	.	.
.	.	.	.	.	.	[2G	e-	.	.	.	.	[2B	e-	.	.	.	.	4b	.	[2dd	-lei-	.	.
.	.	.	.	.	.	.	.	.	.	.	.	.	.	.	.	.	.	4a	.	.	.	8fL	.
.	.	.	.	.	.	.	.	.	.	.	.	.	.	.	.	.	.	.	.	.	.	8eJ	.
=10	=10	=10	=10	=10	=10	=10	=10	=10	=10	=10	=10	=10	=10	=10	=10	=10	=10	=10	=10	=10	=10	=10	=10
0.D	-e	1GG	-e	2r	.	2G]	.	0.r	.	0.d	-ri-	1B]	.	1G	-son,	1g	-ri-	2.g	.	4dd]	.	1.d	-son,
.	.	.	.	.	.	.	.	.	.	.	.	.	.	.	.	.	.	.	.	4cc	.	.	.
.	.	.	.	2D	e-	1d	-lei-	.	.	.	.	.	.	.	.	.	.	.	.	4b	.	.	.
.	.	.	.	.	.	.	.	.	.	.	.	.	.	.	.	.	.	8fL	.	8aL	.	.	.
.	.	.	.	.	.	.	.	.	.	.	.	.	.	.	.	.	.	8eJ	.	8gJ	.	.	.
.	.	2.D	e-	2F	-lei-	.	.	.	.	.	.	2.A	-lei-	1r	.	4a	-e	2d	-son,	2.f	.	.	.
.	.	.	.	.	.	.	.	.	.	.	.	.	.	.	.	4g	.	.	.	.	.	.	.
.	.	.	.	2D	.	4c	.	.	.	.	.	.	.	.	.	4f	.	2.dd	Ky-	.	.	2.f	Ky-
.	.	4E	.	.	.	4B	.	.	.	.	.	4G	.	.	.	4e	.	.	.	4g	.	.	.
.	.	2F	-lei-	1A	-son,	1A	-son,	.	.	.	.	1F	.	1D	e-	1d	.	.	.	2a	.	.	.
.	.	.	.	.	.	.	.	.	.	.	.	.	.	.	.	.	.	8ccL	-ri-	.	.	4g	-ri-
.	.	.	.	.	.	.	.	.	.	.	.	.	.	.	.	.	.	8bJ	.	.	.	.	.
.	.	2D	-son,	.	.	.	.	.	.	.	.	.	.	.	.	.	.	2a	-e	2f	.	2a	-e
=11	=11	=11	=11	=11	=11	=11	=11	=11	=11	=11	=11	=11	=11	=11	=11	=11	=11	=11	=11	=11	=11	=11	=11
0.E	e-	2r	.	2r	.	2r	.	[0.G	Ky-	0.B	.	2E	-son,	2.Bn	-lei-	2G	e-	2r	.	2g	-son,	2g	e-
.	.	2G	Ky-	2.E	Ky-	1e	Ky-	.	.	.	.	2.G	Ky-	.	.	2.g	-lei-	2g	e-	2e	Ky-	2.b	-lei-
.	.	.	.	.	.	.	.	.	.	.	.	.	.	4A	.	.	.	.	.	.	.	.	.
.	.	2.E	-ri-	.	.	.	.	.	.	.	.	.	.	1G	-son,	.	.	2.b	-lei-	2.g	-ri-	.	.
.	.	.	.	4F	.	.	.	.	.	.	.	4A	.	.	.	4f	.	.	.	.	.	4a	.
.	.	.	.	2G	.	4d	-ri-	.	.	.	.	2.B	.	.	.	1e	.	.	.	.	.	4g	.
.	.	4F	.	.	.	4c	.	.	.	.	.	.	.	.	.	.	.	4a	.	4a	.	4f	.
.	.	1G	-e	2r	.	1B	-e,	.	.	.	.	.	.	2r	.	.	.	1g	-son,	[1b	-e,	1e	.
.	.	.	.	.	.	.	.	.	.	.	.	4G	-ri-	.	.	.	.	.	.	.	.	.	.
.	.	.	.	2G	-ri-	.	.	.	.	.	.	2G	-e,	2B	e-	4d	-son,	.	.	.	.	.	.
.	.	.	.	.	.	.	.	.	.	.	.	.	.	.	.	4c	.	.	.	.	.	.	.
=12	=12	=12	=12	=12	=12	=12	=12	=12	=12	=12	=12	=12	=12	=12	=12	=12	=12	=12	=12	=12	=12	=12	=12
0.D	-lei-	4G	e-	[0.GG	-e e-	1r	.	0.G]	.	[0.d	-e	2r	.	2.B	-lei-	2.B	Ky-	2r	.	1b]	.	0g	-son,
.	.	4F	.	.	.	.	.	.	.	.	.	.	.	.	.	.	.	.	.	.	.	.	.
.	.	4G	.	.	.	.	.	.	.	.	.	2.B	Ky-	.	.	.	.	2dd	Ky-	.	.	.	.
.	.	4A	.	.	.	.	.	.	.	.	.	.	.	4A	.	4c	.	.	.	.	.	.	.
.	.	2.B	-lei-	.	.	2r	.	.	.	.	.	.	.	2.G	.	2d	.	2.b	-ri-	2r	.	.	.
.	.	.	.	.	.	.	.	.	.	.	.	4c	-ri-	.	.	.	.	.	.	.	.	.	.
.	.	.	.	.	.	2.B	Ky-	.	.	.	.	2d	-e	.	.	2G	-ri-	.	.	2dd	Ky-	.	.
.	.	4A	.	.	.	.	.	.	.	.	.	.	.	8FL	.	.	.	4cc	.	.	.	.	.
.	.	.	.	.	.	.	.	.	.	.	.	.	.	8EJ	.	.	.	.	.	.	.	.	.
.	.	2.G	.	.	.	.	.	.	.	.	.	2G	e-	[1D	-son,	1g	-e	2dd	.	2.b	-ri-	2r	.
.	.	.	.	.	.	4c	-ri-	.	.	.	.	.	.	.	.	.	.	.	.	.	.	.	.
.	.	.	.	.	.	2d	-e e-	.	.	.	.	2D	.	.	.	.	.	2g	-e	.	.	2dd	Ky-
.	.	8FL	.	.	.	.	.	.	.	.	.	.	.	.	.	.	.	.	.	4cc	.	.	.
.	.	8EJ	.	.	.	.	.	.	.	.	.	.	.	.	.	.	.	.	.	.	.	.	.
=13	=13	=13	=13	=13	=13	=13	=13	=13	=13	=13	=13	=13	=13	=13	=13	=13	=13	=13	=13	=13	=13	=13	=13
0.D	-son,	1D	-son,	0GG]	.	2.G	-lei-	0.G	-ri-	0.d]	.	2.G	-lei-	2D]	.	2r	.	2r	.	2dd	.	2.b	-ri-
.	.	.	.	.	.	.	.	.	.	.	.	.	.	2.G	Ky-	2g	e-	2.dd	e-	2g	-e	.	.
.	.	.	.	.	.	8FL	.	.	.	.	.	4A	.	.	.	.	.	.	.	.	.	4cc	.
.	.	.	.	.	.	8EJ	.	.	.	.	.	.	.	.	.	.	.	.	.	.	.	.	.
.	.	2r	.	.	.	2D	.	.	.	.	.	1B	.	.	.	2.g	-lei-	.	.	2r	.	2dd	.
.	.	.	.	.	.	.	.	.	.	.	.	.	.	4A	.	.	.	4cc	.	.	.	.	.
.	.	2D	Ky-	.	.	2d	.	.	.	.	.	.	.	4B	.	.	.	4b	.	1dd	e-	2g	.
.	.	.	.	.	.	.	.	.	.	.	.	.	.	4c	.	8fL	.	4a	.	.	.	.	.
.	.	.	.	.	.	.	.	.	.	.	.	.	.	.	.	8eJ	.	.	.	.	.	.	.
.	.	1D	-ri-	1GG	-lei-	1B	-son,	.	.	.	.	1G	-son,	2d	.	2d	-son,	1b	.	.	.	1g	-e
.	.	.	.	.	.	.	.	.	.	.	.	.	.	2G	-ri-	2g	e-	.	.	2dd	-lei-	.	.
=14	=14	=14	=14	=14	=14	=14	=14	=14	=14	=14	=14	=14	=14	=14	=14	=14	=14	=14	=14	=14	=14	=14	=14
0.r	.	1.C	-e	1C	-son,	2r	.	0.E	.	[0.e	e-	2r	.	1G	-e	2.g	-lei-	2.cc	-lei-	1g	-son,	2r	.
.	.	.	.	.	.	2e	Ky-	.	.	.	.	1G	Ky-	.	.	.	.	.	.	.	.	2.cc	e-
.	.	.	.	.	.	.	.	.	.	.	.	.	.	.	.	4f	.	8bL	.	.	.	.	.
.	.	.	.	.	.	.	.	.	.	.	.	.	.	.	.	.	.	8aJ	.	.	.	.	.
.	.	.	.	1r	.	2.e	-ri-	.	.	.	.	.	.	2r	.	4e	.	2g	-son,	2r	.	.	.
.	.	.	.	.	.	.	.	.	.	.	.	.	.	.	.	4d	.	.	.	.	.	4b	.
.	.	1AA	e-	.	.	.	.	.	.	.	.	2C	-ri-	2.e	e-	1c	-son,	2a	e-	2.cc	e-	4cc	.
.	.	.	.	.	.	4d	.	.	.	.	.	.	.	.	.	.	.	.	.	.	.	4dd	.
.	.	.	.	1r	.	2.c	-e e-	.	.	.	.	1C	-e	.	.	.	.	2.a	-lei-	.	.	1ee	-lei-
.	.	.	.	.	.	.	.	.	.	.	.	.	.	4d	.	.	.	.	.	4b	.	.	.
.	.	[2C	-lei-	.	.	.	.	.	.	.	.	.	.	[2c	-lei-	2G	e-	.	.	4cc	.	.	.
.	.	.	.	.	.	8BL	.	.	.	.	.	.	.	.	.	.	.	8gL	.	4dd	.	.	.
.	.	.	.	.	.	8AJ	.	.	.	.	.	.	.	.	.	.	.	8fJ	.	.	.	.	.
=15	=15	=15	=15	=15	=15	=15	=15	=15	=15	=15	=15	=15	=15	=15	=15	=15	=15	=15	=15	=15	=15	=15	=15
0.r	.	4C]	.	2r	.	1G	-lei-	0.G	-e	0.e_	.	1r	.	2c]	.	2.g	-lei-	1e	.	1ee	-lei-	1cc	-son,
.	.	4BB	.	.	.	.	.	.	.	.	.	.	.	.	.	.	.	.	.	.	.	.	.
.	.	4C	.	2.C	e-	.	.	.	.	.	.	.	.	4B	.	.	.	.	.	.	.	.	.
.	.	4D	.	.	.	.	.	.	.	.	.	.	.	4A	.	4f	.	.	.	.	.	.	.
.	.	1E	.	.	.	0c	-son,	.	.	.	.	2r	.	2G	-son,	4e	.	0g	-son,	1cc	-son,	1r	.
.	.	.	.	4BB	.	.	.	.	.	.	.	.	.	.	.	4d	.	.	.	.	.	.	.
.	.	.	.	4C	.	.	.	.	.	.	.	2.C	e-	2.e	e-	1c	.	.	.	.	.	.	.
.	.	.	.	4D	.	.	.	.	.	.	.	.	.	.	.	.	.	.	.	.	.	.	.
.	.	1C	-son,	1E	-lei-	.	.	.	.	.	.	.	.	.	.	.	.	.	.	2r	.	1r	.
.	.	.	.	.	.	.	.	.	.	.	.	4BB	-lei-	4d	.	.	.	.	.	.	.	.	.
.	.	.	.	.	.	.	.	.	.	.	.	4C	.	4c	.	2G	.	.	.	[2cc	e-	.	.
.	.	.	.	.	.	.	.	.	.	.	.	4D	.	4B	.	.	.	.	.	.	.	.	.
=16	=16	=16	=16	=16	=16	=16	=16	=16	=16	=16	=16	=16	=16	=16	=16	=16	=16	=16	=16	=16	=16	=16	=16
0.r	.	0.AA	Ky-	0C	-son,	2r	.	0.A	e-	0.e]	.	0.E	-son,	2c	-lei-	1c	-son,	2r	.	4cc]	.	2.cc	e-
.	.	.	.	.	.	.	.	.	.	.	.	.	.	.	.	.	.	.	.	4b	.	.	.
.	.	.	.	.	.	2.e	e-	.	.	.	.	.	.	2C	.	.	.	2.cc	e-	4a	.	.	.
.	.	.	.	.	.	.	.	.	.	.	.	.	.	.	.	.	.	.	.	4g	.	4b	.
.	.	.	.	.	.	.	.	.	.	.	.	.	.	1C	-son,	2r	.	.	.	2.a	-lei-	4a	.
.	.	.	.	.	.	4d	.	.	.	.	.	.	.	.	.	.	.	4b	.	.	.	4g	.
.	.	.	.	.	.	4c	.	.	.	.	.	.	.	.	.	2.c	e-	4cc	.	.	.	1a	-lei-
.	.	.	.	.	.	4B	.	.	.	.	.	.	.	.	.	.	.	4dd	.	8gL	.	.	.
.	.	.	.	.	.	.	.	.	.	.	.	.	.	.	.	.	.	.	.	8fJ	.	.	.
.	.	.	.	2r	.	1c	-lei-	.	.	.	.	.	.	1r	.	.	.	2ee	-lei-	1e	-son,	.	.
.	.	.	.	.	.	.	.	.	.	.	.	.	.	.	.	4B	.	.	.	.	.	.	.
.	.	.	.	[2E	e-	.	.	.	.	.	.	.	.	.	.	4c	.	2cc	-son,	.	.	4g	.
.	.	.	.	.	.	.	.	.	.	.	.	.	.	.	.	4d	.	.	.	.	.	4f	.
=17	=17	=17	=17	=17	=17	=17	=17	=17	=17	=17	=17	=17	=17	=17	=17	=17	=17	=17	=17	=17	=17	=17	=17
0.r	.	0.C	-ri-	4E]	.	1.c	-son,	0G	-lei-	0.e	-lei-	2r	.	1r	.	1e	-lei-	2cc	Ky-	2r	.	1e	-son,
.	.	.	.	4D	.	.	.	.	.	.	.	.	.	.	.	.	.	.	.	.	.	.	.
.	.	.	.	4E	.	.	.	.	.	.	.	2.E	e-	.	.	.	.	4b	-ri-	1cc	Ky-	.	.
.	.	.	.	4F	.	.	.	.	.	.	.	.	.	.	.	.	.	4a	.	.	.	.	.
.	.	.	.	1G	-lei-	.	.	.	.	.	.	.	.	2r	.	2c	-son,	1g	-e	.	.	2r	.
.	.	.	.	.	.	.	.	.	.	.	.	4D	.	.	.	.	.	.	.	.	.	.	.
.	.	.	.	.	.	2c	e-	.	.	.	.	4E	.	2.E	e-	2g	Ky-	.	.	4b	-ri-	1cc	Ky-
.	.	.	.	.	.	.	.	.	.	.	.	4F	.	.	.	.	.	.	.	4a	.	.	.
.	.	.	.	1C	-son,	2.c	-lei-	[1G	-son,	.	.	2G	-lei-	.	.	2e	.	1r	.	1g	-e	.	.
.	.	.	.	.	.	.	.	.	.	.	.	.	.	4D	.	.	.	.	.	.	.	.	.
.	.	.	.	.	.	.	.	.	.	.	.	2C	.	4E	.	[2g	.	.	.	.	.	4b	-ri-
.	.	.	.	.	.	4B	.	.	.	.	.	.	.	4F	.	.	.	.	.	.	.	4a	.
=18	=18	=18	=18	=18	=18	=18	=18	=18	=18	=18	=18	=18	=18	=18	=18	=18	=18	=18	=18	=18	=18	=18	=18
[0.D	Ky-	0.GG	-e e-	2r	.	1d	.	0.G]	.	0d	.	1G	-son,	2G	-lei-	2g]	.	2.dd	e-	1r	.	2.b	-e e-
.	.	.	.	1G	Ky-	.	.	.	.	.	.	.	.	2D	-son,	4f	-ri-	.	.	.	.	.	.
.	.	.	.	.	.	.	.	.	.	.	.	.	.	.	.	4e	.	4cc	.	.	.	4a	.
.	.	.	.	.	.	1G	-son,	.	.	.	.	2.B	Ky-	1d	Ky-	1d	.	4b	.	2.b	e-	4b	.
.	.	.	.	.	.	.	.	.	.	.	.	.	.	.	.	.	.	4a	.	.	.	4cc	.
.	.	.	.	4F	-ri-	.	.	.	.	.	.	.	.	.	.	.	.	1b	-lei-	.	.	1dd	-lei-
.	.	.	.	4E	.	.	.	.	.	.	.	4c	-ri-	.	.	.	.	.	.	4a	-lei-	.	.
.	.	.	.	1D	-e,	2.B	Ky-	.	.	[1d	-son,	1d	-e	1G	-ri-	1g	-e	.	.	4b	.	.	.
.	.	.	.	.	.	.	.	.	.	.	.	.	.	.	.	.	.	.	.	4cc	.	.	.
.	.	.	.	.	.	.	.	.	.	.	.	.	.	.	.	.	.	4a	.	[2dd	-son,	4cc	.
.	.	.	.	.	.	4c	-ri-	.	.	.	.	.	.	.	.	.	.	4g	.	.	.	4b	.
=19	=19	=19	=19	=19	=19	=19	=19	=19	=19	=19	=19	=19	=19	=19	=19	=19	=19	=19	=19	=19	=19	=19	=19
1D]	.	0.D	.	2r	.	4d	-e	0.r	.	1d]	.	1r	.	2A	-e	2r	.	2f	.	2dd]	.	1a	-son,
.	.	.	.	.	.	4c	.	.	.	.	.	.	.	.	.	.	.	.	.	.	.	.	.
.	.	.	.	1F	Ky-	1d	e-	.	.	.	.	.	.	2D	e-	2a	e-	2d	.	4cc	e-	.	.
.	.	.	.	.	.	.	.	.	.	.	.	.	.	.	.	.	.	.	.	4b	.	.	.
0D	-ri-	.	.	.	.	.	.	.	.	1r	.	2A	e-	2A	-lei-	2.d	-lei-	0dd	-son,	4a	.	2f	Ky-
.	.	.	.	.	.	.	.	.	.	.	.	.	.	.	.	.	.	.	.	4g	.	.	.
.	.	.	.	1.D	-ri-	4c	.	.	.	.	.	2B	.	2.D	.	.	.	.	.	1g	-lei-	2g	.
.	.	.	.	.	.	4B	.	.	.	.	.	.	.	.	.	4e	.	.	.	.	.	.	.
.	.	.	.	.	.	1A	-lei-	.	.	1r	.	2.d	-lei-	.	.	2f	-son,	.	.	.	.	1a	-ri-
.	.	.	.	.	.	.	.	.	.	.	.	.	.	4E	.	.	.	.	.	.	.	.	.
.	.	.	.	.	.	.	.	.	.	.	.	.	.	2F	-son,	2d	.	.	.	2f#i	.	.	.
.	.	.	.	.	.	.	.	.	.	.	.	4c	.	.	.	.	.	.	.	.	.	.	.
=20	=20	=20	=20	=20	=20	=20	=20	=20	=20	=20	=20	=20	=20	=20	=20	=20	=20	=20	=20	=20	=20	=20	=20
0BB	.	0GG	-lei-	1.D	-e e-	2G	-son,	0.r	.	0d	Ky-	1d	-son,	2D	Ky-	2r	.	2dd	e-	1g	-son,	1b	-e
.	.	.	.	.	.	2.G	e-	.	.	.	.	.	.	2B	-ri-	2g	e-	1b	-lei-	.	.	.	.
.	.	.	.	.	.	.	.	.	.	.	.	2r	.	0B	-e	2.g	-lei-	.	.	1r	.	1.dd	e-
.	.	.	.	.	.	4F	.	.	.	.	.	.	.	.	.	.	.	.	.	.	.	.	.
.	.	.	.	1BB	-lei-	4G	.	.	.	.	.	2.G	e-	.	.	.	.	2g	.	.	.	.	.
.	.	.	.	.	.	4A	.	.	.	.	.	.	.	.	.	4f	.	.	.	.	.	.	.
[1D	-e	1GG	-son,	.	.	2.B	.	.	.	[1d	-ri-	.	.	.	.	1d	.	1g	-son,	1dd	e-	.	.
.	.	.	.	.	.	.	.	.	.	.	.	4F	-lei-	.	.	.	.	.	.	.	.	.	.
.	.	.	.	2GG	.	.	.	.	.	.	.	4G	.	.	.	.	.	.	.	.	.	[2b	-lei-
.	.	.	.	.	.	4c	.	.	.	.	.	4A	.	.	.	.	.	.	.	.	.	.	.
=21	=21	=21	=21	=21	=21	=21	=21	=21	=21	=21	=21	=21	=21	=21	=21	=21	=21	=21	=21	=21	=21	=21	=21
1D]	.	1.G	Ky-	0.GG	-son,	1d	-lei-	1r	.	1d]	.	0B	-son,	1r	.	1G	.	2r	.	2dd	-lei-	2b]	.
.	.	.	.	.	.	.	.	.	.	.	.	.	.	.	.	.	.	2.g	e-	1b	.	2g	.
0E	e-	.	.	.	.	1G	-son,	[0G	Ky-	0B	.	.	.	2r	.	1g	-son,	.	.	.	.	1g	-son,
.	.	.	.	.	.	.	.	.	.	.	.	.	.	.	.	.	.	4f	.	.	.	.	.
.	.	2G	-ri-	.	.	.	.	.	.	.	.	.	.	2.G	e-	.	.	4g	.	2g	.	.	.
.	.	.	.	.	.	.	.	.	.	.	.	.	.	.	.	.	.	4a	.	.	.	.	.
.	.	1G	-e	.	.	1r	.	.	.	.	.	1r	.	.	.	1r	.	2b	-lei-	1g	-son,	1r	.
.	.	.	.	.	.	.	.	.	.	.	.	.	.	4F	.	.	.	.	.	.	.	.	.
.	.	.	.	.	.	.	.	.	.	.	.	.	.	4G	.	.	.	2g	-son,	.	.	.	.
.	.	.	.	.	.	.	.	.	.	.	.	.	.	4A	.	.	.	.	.	.	.	.	.
=22	=22	=22	=22	=22	=22	=22	=22	=22	=22	=22	=22	=22	=22	=22	=22	=22	=22	=22	=22	=22	=22	=22	=22
0D	-lei-	2r	.	4GG	Ky-	2.B	Ky-	0G]	.	[0.d	-e	2r	.	2B	-lei-	2r	.	2.dd	Ky-	1r	.	2r	.
.	.	.	.	4AA	.	.	.	.	.	.	.	.	.	.	.	.	.	.	.	.	.	.	.
.	.	2GG	e-	4BB	.	.	.	.	.	.	.	4G	Ky-	2G	.	1g	Ky-	.	.	.	.	2.dd	Ky-
.	.	.	.	4C	.	4A	-ri-	.	.	.	.	4A	.	.	.	.	.	4cc	.	.	.	.	.
.	.	1GG	-lei-	2D	.	2G	-e e-	.	.	.	.	4B	.	2D	-son,	.	.	4b	.	2r	.	.	.
.	.	.	.	.	.	.	.	.	.	.	.	4c	.	.	.	.	.	4a	.	.	.	4cc	.
.	.	.	.	2GG	-ri-	1G	-lei-	.	.	.	.	2d	.	1B	Ky-	2g	-ri-	2b	-ri-	2.dd	Ky-	4b	.
.	.	.	.	.	.	.	.	.	.	.	.	.	.	.	.	.	.	.	.	.	.	4a	.
[1D	-son.	2GG	-son,	1D	-e	.	.	[1G	-ri-	.	.	2G	-ri-	.	.	2d	-e e-	[1g	-e	.	.	2.b	.
.	.	.	.	.	.	.	.	.	.	.	.	.	.	.	.	.	.	.	.	4cc	-ri-	.	.
.	.	[2GG	Ky-	.	.	4F	.	.	.	.	.	[2d	-e	2G	-ri-	[2g	-lei-	.	.	4b	.	.	.
.	.	.	.	.	.	4E	.	.	.	.	.	.	.	.	.	.	.	.	.	4a	.	4cc	-ri-
=23	=23	=23	=23	=23	=23	=23	=23	=23	=23	=23	=23	=23	=23	=23	=23	=23	=23	=23	=23	=23	=23	=23	=23
1D]	.	4GG]	.	1GG	e-	2D	.	1G]	.	1d]	.	2d]	.	2G	-e	4g]	.	1g]	.	1b	-e	1dd	-e
.	.	4AA	.	.	.	.	.	.	.	.	.	.	.	.	.	8fL	.	.	.	.	.	.	.
.	.	.	.	.	.	.	.	.	.	.	.	.	.	.	.	8eJ	.	.	.	.	.	.	.
.	.	2BB	.	.	.	2G	-son,	.	.	.	.	1G	e-	2.g	e-	2d	.	.	.	.	.	.	.
1r	.	2C	-ri-	1C	-lei-	2r	.	0E	.	0e	e-	.	.	.	.	0c	-son,	2r	.	2e	e-	2g	e-
.	.	.	.	.	.	.	.	.	.	.	.	.	.	2e	-lei-	.	.	.	.	.	.	.	.
.	.	2AA	.	.	.	1C	Ky-	.	.	.	.	2A	.	.	.	.	.	2.ee	e-	2.a	-lei-	2.cc	-lei-
.	.	.	.	.	.	.	.	.	.	.	.	.	.	4d	.	.	.	.	.	.	.	.	.
1r	.	1C	-e e-	2AA	.	.	.	.	.	.	.	1E	.	4c	.	.	.	.	.	.	.	.	.
.	.	.	.	.	.	.	.	.	.	.	.	.	.	4d	.	.	.	4cc	.	4g	.	4b	.
.	.	.	.	2C	.	2C	-ri-	.	.	.	.	.	.	2e	-son,	.	.	2cc	-lei-	2e	-son,	4g	.
.	.	.	.	.	.	.	.	.	.	.	.	.	.	.	.	.	.	.	.	.	.	4a	.
=24	=24	=24	=24	=24	=24	=24	=24	=24	=24	=24	=24	=24	=24	=24	=24	=24	=24	=24	=24	=24	=24	=24	=24
0.r	.	2BB	-le-	2GG	-son,	2.G	-e	0G	-e	0.d	-lei-	2.B	-lei-	2r	.	2r	.	1dd	.	2r	.	4b	.
.	.	.	.	.	.	.	.	.	.	.	.	.	.	.	.	.	.	.	.	.	.	4cc	.
.	.	1GG	.	2.D	Ky-	.	.	.	.	.	.	.	.	2.B	Ky-	2.g	Ky-	.	.	1b	Ky-	1dd	-son,
.	.	.	.	.	.	4F	e-	.	.	.	.	4c	.	.	.	.	.	.	.	.	.	.	.
.	.	.	.	.	.	2D	-lei-	.	.	.	.	2d	-son,	.	.	.	.	2g	-son,	.	.	.	.
.	.	.	.	4C	-ri-	.	.	.	.	.	.	.	.	4A	-ri-	4f	-ri-	.	.	.	.	.	.
.	.	2GG	-i-	4D	.	2G	.	.	.	.	.	1D	Ky-	4B	.	2d	-e	1dd	e-	4a	-ri-	4cc	e-
.	.	.	.	4E	.	.	.	.	.	.	.	.	.	4c	.	.	.	.	.	4g	.	4b	.
.	.	[1D	-son,	2.F	-e	2D	-son,	[1A	e-	.	.	.	.	2d	-e	2r	.	.	.	2f	-e	4a	.
.	.	.	.	.	.	.	.	.	.	.	.	.	.	.	.	.	.	.	.	.	.	4g	.
.	.	.	.	.	.	[2d	e-	.	.	.	.	2D	-ri-	[2D	e-	2d	e-	4cc	.	2d	.	[2g	-lei-
.	.	.	.	4G	.	.	.	.	.	.	.	.	.	.	.	.	.	4b	.	.	.	.	.
=25	=25	=25	=25	=25	=25	=25	=25	=25	=25	=25	=25	=25	=25	=25	=25	=25	=25	=25	=25	=25	=25	=25	=25
[0.Dl	-son.	1D]	.	1D	e-	4d]	.	1A]	.	[0.dl	-son.	2A	-e	4D]	.	4f	-lei-	2a	.	2r	.	2g]	.
.	.	.	.	.	.	4c	.	.	.	.	.	.	.	4E	.	4e	.	.	.	.	.	.	.
.	.	.	.	.	.	2A	-lei-	.	.	.	.	1D	e-	2F	-lei-	4d	.	2.dd	-lei-	2a	e-	2f#i	.
.	.	.	.	.	.	.	.	.	.	.	.	.	.	.	.	4c	.	.	.	.	.	.	.
.	.	2r	.	0GG	-lei-	1r	.	0G	-lei-	.	.	.	.	1D	.	[0Bl	-son.	.	.	2.b	-lei-	[0gl	-son.
.	.	.	.	.	.	.	.	.	.	.	.	.	.	.	.	.	.	4cc	.	.	.	.	.
.	.	1G	e-	.	.	.	.	.	.	.	.	2D	-lei-	.	.	.	.	4b	.	.	.	.	.
.	.	.	.	.	.	.	.	.	.	.	.	.	.	.	.	.	.	4a	.	4cc	.	.	.
.	.	.	.	.	.	[1Bl	-son.	.	.	.	.	[1Gl	-son.	[1dl	-son.	.	.	[1bl	-son.	[1ddl	-son.	.	.
.	.	2GG	-lei-	.	.	.	.	.	.	.	.	.	.	.	.	.	.	.	.	.	.	.	.
=26	=26	=26	=26	=26	=26	=26	=26	=26	=26	=26	=26	=26	=26	=26	=26	=26	=26	=26	=26	=26	=26	=26	=26
0.D]	.	0.GGl	-son.	0.Dl	-son.	0.B]	.	0.Gl	-son.	0.d]	.	0.G]	.	0.d]	.	0.B]	.	0.b]	.	0.dd]	.	0.g]	.
!!LO:LB:i:g=z
=27||	=27||	=27||	=27||	=27||	=27||	=27||	=27||	=27||	=27||	=27||	=27||	=27||	=27||	=27||	=27||	=27||	=27||	=27||	=27||	=27||	=27||	=27||	=27||
*>B	*>B	*>B	*>B	*>B	*>B	*>B	*>B	*>B	*>B	*>B	*>B	*>B	*>B	*>B	*>B	*>B	*>B	*>B	*>B	*>B	*>B	*>B	*>B
*clefF4	*	*clefF4	*	*clefF4	*	*clefGv2	*	*clefGv2	*	*clefGv2	*	*clefGv2	*	*clefGv2	*	*clefGv2	*	*clefG2	*	*clefG2	*	*clefG2	*
*k[]	*	*k[]	*	*k[]	*	*k[]	*	*k[]	*	*k[]	*	*k[]	*	*k[]	*	*k[]	*	*k[]	*	*k[]	*	*k[]	*
*M2/1	*	*M2/1	*	*M2/1	*	*M2/1	*	*M2/1	*	*M2/1	*	*M2/1	*	*M2/1	*	*M2/1	*	*M2/1	*	*M2/1	*	*M2/1	*
*met(C|)	*	*met(C|)	*	*met(C|)	*	*met(C|)	*	*met(C|)	*	*met(C|)	*	*met(C|)	*	*met(C|)	*	*met(C|)	*	*met(C|)	*	*met(C|)	*	*met(C|)	*
!!section: Christe
!!!OMD: Christe
0r	.	0r	.	[0C	Chri-	0G	Chri-	0r	.	0r	.	[0c	Chri-	0r	.	0e	Chri-	1r	.	1g	Chri-	[0cc	Chri-
.	.	.	.	.	.	.	.	.	.	.	.	.	.	.	.	.	.	1g	Chri-	2g	-ste	.	.
.	.	.	.	.	.	.	.	.	.	.	.	.	.	.	.	.	.	.	.	[2e	.	.	.
=28	=28	=28	=28	=28	=28	=28	=28	=28	=28	=28	=28	=28	=28	=28	=28	=28	=28	=28	=28	=28	=28	=28	=28
0r	.	0r	.	0C_	.	1G	-ste	0r	.	0r	.	1c]	.	0r	.	1.g	.	2g	-ste	2e]	.	0cc]	.
.	.	.	.	.	.	.	.	.	.	.	.	.	.	.	.	.	.	1e	.	2c	e-	.	.
.	.	.	.	.	.	[1E	.	.	.	.	.	1G	.	.	.	.	.	.	.	1c	-lei-	.	.
.	.	.	.	.	.	.	.	.	.	.	.	.	.	.	.	[2e	.	2c	e-	.	.	.	.
=29	=29	=29	=29	=29	=29	=29	=29	=29	=29	=29	=29	=29	=29	=29	=29	=29	=29	=29	=29	=29	=29	=29	=29
0r	.	0r	.	0C]	.	1E]	.	0r	.	0r	.	1c	-ste	0r	.	2e]	.	1c	-lei-	0g	-son,	1.cc	-ste
.	.	.	.	.	.	.	.	.	.	.	.	.	.	.	.	2c	.	.	.	.	.	.	.
.	.	.	.	.	.	1E	e-	.	.	.	.	1e	.	.	.	2c	-ste	1cc	.	.	.	.	.
.	.	.	.	.	.	.	.	.	.	.	.	.	.	.	.	[2g	e-	.	.	.	.	4b	.
.	.	.	.	.	.	.	.	.	.	.	.	.	.	.	.	.	.	.	.	.	.	4a	.
=30	=30	=30	=30	=30	=30	=30	=30	=30	=30	=30	=30	=30	=30	=30	=30	=30	=30	=30	=30	=30	=30	=30	=30
0r	.	0r	.	[0GG	.	2.G	-lei-	0r	.	0r	.	2d	e-	0r	.	2g]	.	1dd	-son,	2r	.	1b	.
.	.	.	.	.	.	.	.	.	.	.	.	1G	-lei-	.	.	4f	.	.	.	2.g	Chri-	.	.
.	.	.	.	.	.	4A	.	.	.	.	.	.	.	.	.	4e	.	.	.	.	.	.	.
.	.	.	.	.	.	4B	.	.	.	.	.	.	.	.	.	1d	-lei-	2b	e-	.	.	2r	.
.	.	.	.	.	.	4c	.	.	.	.	.	.	.	.	.	.	.	.	.	4a	.	.	.
.	.	.	.	.	.	[2B	.	.	.	.	.	4F	.	.	.	.	.	[2dd	.	4b	.	[2g	e-
.	.	.	.	.	.	.	.	.	.	.	.	4E	.	.	.	.	.	.	.	4cc	.	.	.
=31	=31	=31	=31	=31	=31	=31	=31	=31	=31	=31	=31	=31	=31	=31	=31	=31	=31	=31	=31	=31	=31	=31	=31
0r	.	0r	.	0GG_	.	2B]	.	0r	.	0r	.	0D	-son,	0r	.	1G	-son,	4dd]	.	1dd	-ste	4g]	.
.	.	.	.	.	.	.	.	.	.	.	.	.	.	.	.	.	.	4cc	.	.	.	4a	.
.	.	.	.	.	.	4A	.	.	.	.	.	.	.	.	.	.	.	4b	.	.	.	4b	.
.	.	.	.	.	.	4G	.	.	.	.	.	.	.	.	.	.	.	4a	.	.	.	4cc	.
.	.	.	.	.	.	1B	-son,	.	.	.	.	.	.	.	.	2r	.	2.g	.	2r	.	4dd	.
.	.	.	.	.	.	.	.	.	.	.	.	.	.	.	.	.	.	.	.	.	.	4ee	.
.	.	.	.	.	.	.	.	.	.	.	.	.	.	.	.	[2g	e-	.	.	2g	e-	[2dd	.
.	.	.	.	.	.	.	.	.	.	.	.	.	.	.	.	.	.	8fL	.	.	.	.	.
.	.	.	.	.	.	.	.	.	.	.	.	.	.	.	.	.	.	8eJ	.	.	.	.	.
=32	=32	=32	=32	=32	=32	=32	=32	=32	=32	=32	=32	=32	=32	=32	=32	=32	=32	=32	=32	=32	=32	=32	=32
0r	.	0r	.	0GG]	.	2r	.	0r	.	0r	.	[0G	.	0r	.	2g]	.	1d	.	2b	-lei-	4dd]	.
.	.	.	.	.	.	.	.	.	.	.	.	.	.	.	.	.	.	.	.	.	.	4cc	.
.	.	.	.	.	.	2G	e-	.	.	.	.	.	.	.	.	4f	.	.	.	2cc	.	1cc	-lei-
.	.	.	.	.	.	.	.	.	.	.	.	.	.	.	.	4e	.	.	.	.	.	.	.
.	.	.	.	.	.	4B	-lei-	.	.	.	.	.	.	.	.	1d	-lei-	1g	-lei-	1dd	.	.	.
.	.	.	.	.	.	4A	.	.	.	.	.	.	.	.	.	.	.	.	.	.	.	.	.
.	.	.	.	.	.	4G	.	.	.	.	.	.	.	.	.	.	.	.	.	.	.	2b	.
.	.	.	.	.	.	4F	.	.	.	.	.	.	.	.	.	.	.	.	.	.	.	.	.
=33	=33	=33	=33	=33	=33	=33	=33	=33	=33	=33	=33	=33	=33	=33	=33	=33	=33	=33	=33	=33	=33	=33	=33
0r	.	0r	.	0C	-ste,	0E	-son,	0r	.	0r	.	0G]	.	0r	.	0c	-son,	0g	-son,	0ee	-son,	0cc	-son,
=34	=34	=34	=34	=34	=34	=34	=34	=34	=34	=34	=34	=34	=34	=34	=34	=34	=34	=34	=34	=34	=34	=34	=34
1r	.	[0C	Chri-	0r	.	[0e	Chri-	1G	Chri-	[0c	Chri-	0r	.	0E	Chri-	0r	.	0r	.	0r	.	0r	.
1G	Chri-	.	.	.	.	.	.	2G	-ste	.	.	.	.	.	.	.	.	.	.	.	.	.	.
.	.	.	.	.	.	.	.	[2E	.	.	.	.	.	.	.	.	.	.	.	.	.	.	.
=35	=35	=35	=35	=35	=35	=35	=35	=35	=35	=35	=35	=35	=35	=35	=35	=35	=35	=35	=35	=35	=35	=35	=35
2G	-ste	0C_	.	0r	.	0e]	.	2E]	.	0c]	.	0r	.	1.G	.	0r	.	0r	.	0r	.	0r	.
1E	.	.	.	.	.	.	.	2C	e-	.	.	.	.	.	.	.	.	.	.	.	.	.	.
.	.	.	.	.	.	.	.	1C	-lei-	.	.	.	.	.	.	.	.	.	.	.	.	.	.
2C	e-	.	.	.	.	.	.	.	.	.	.	.	.	[2E	.	.	.	.	.	.	.	.	.
=36	=36	=36	=36	=36	=36	=36	=36	=36	=36	=36	=36	=36	=36	=36	=36	=36	=36	=36	=36	=36	=36	=36	=36
1C	-lei-	0C]	.	0r	.	1.e	-ste	0G	-son,	1.c	-ste	0r	.	2E]	.	0r	.	0r	.	0r	.	0r	.
.	.	.	.	.	.	.	.	.	.	.	.	.	.	2C	.	.	.	.	.	.	.	.	.
1c	.	.	.	.	.	.	.	.	.	.	.	.	.	2C	-ste	.	.	.	.	.	.	.	.
.	.	.	.	.	.	4d	.	.	.	4B	.	.	.	[2G	e-	.	.	.	.	.	.	.	.
.	.	.	.	.	.	4c	.	.	.	4A	.	.	.	.	.	.	.	.	.	.	.	.	.
=37	=37	=37	=37	=37	=37	=37	=37	=37	=37	=37	=37	=37	=37	=37	=37	=37	=37	=37	=37	=37	=37	=37	=37
1d	-son,	[0GG	.	0r	.	1.g	.	2r	.	1B	.	0r	.	2G]	.	0r	.	0r	.	0r	.	0r	.
.	.	.	.	.	.	.	.	2.G	Chri-	.	.	.	.	4F	.	.	.	.	.	.	.	.	.
.	.	.	.	.	.	.	.	.	.	.	.	.	.	4E	.	.	.	.	.	.	.	.	.
2B	e-	.	.	.	.	.	.	.	.	2r	.	.	.	1D	-lei-	.	.	.	.	.	.	.	.
.	.	.	.	.	.	.	.	4A	.	.	.	.	.	.	.	.	.	.	.	.	.	.	.
[2d	.	.	.	.	.	4f	.	4B	.	[2G	e-	.	.	.	.	.	.	.	.	.	.	.	.
.	.	.	.	.	.	4e	.	4c	.	.	.	.	.	.	.	.	.	.	.	.	.	.	.
=38	=38	=38	=38	=38	=38	=38	=38	=38	=38	=38	=38	=38	=38	=38	=38	=38	=38	=38	=38	=38	=38	=38	=38
4d]	.	0GG_	.	0r	.	2d	.	1d	-ste	4G]	.	0r	.	1G	-son,	0r	.	0r	.	0r	.	0r	.
4c	.	.	.	.	.	.	.	.	.	4A	.	.	.	.	.	.	.	.	.	.	.	.	.
4B	.	.	.	.	.	2G	e-	.	.	4B	.	.	.	.	.	.	.	.	.	.	.	.	.
4A	.	.	.	.	.	.	.	.	.	4c	.	.	.	.	.	.	.	.	.	.	.	.	.
2G	.	.	.	.	.	2.B	-lei-	2r	.	4d	.	.	.	2r	.	.	.	.	.	.	.	.	.
.	.	.	.	.	.	.	.	.	.	4e	.	.	.	.	.	.	.	.	.	.	.	.	.
4F	.	.	.	.	.	.	.	2G	e-	[2d	.	.	.	[2G	e-	.	.	.	.	.	.	.	.
4E	.	.	.	.	.	4c	.	.	.	.	.	.	.	.	.	.	.	.	.	.	.	.	.
=39	=39	=39	=39	=39	=39	=39	=39	=39	=39	=39	=39	=39	=39	=39	=39	=39	=39	=39	=39	=39	=39	=39	=39
1D	.	0GG]	.	0r	.	4d	.	2B	-lei-	4d]	.	0r	.	2G]	.	0r	.	0r	.	0r	.	0r	.
.	.	.	.	.	.	4G	.	.	.	4c	.	.	.	.	.	.	.	.	.	.	.	.	.
.	.	.	.	.	.	1.g	.	2c	.	1c	-lei-	.	.	4F	.	.	.	.	.	.	.	.	.
.	.	.	.	.	.	.	.	.	.	.	.	.	.	4E	.	.	.	.	.	.	.	.	.
1G	-lei-	.	.	.	.	.	.	1d	.	.	.	.	.	1D	-lei-	.	.	.	.	.	.	.	.
.	.	.	.	.	.	.	.	.	.	2B	.	.	.	.	.	.	.	.	.	.	.	.	.
=40	=40	=40	=40	=40	=40	=40	=40	=40	=40	=40	=40	=40	=40	=40	=40	=40	=40	=40	=40	=40	=40	=40	=40
0G	-son,	0C	-ste,	0r	.	0g	-son,	0e	-son,	0c	-son,	0r	.	0C	-son,	0r	.	0r	.	0r	.	0r	.
=41	=41	=41	=41	=41	=41	=41	=41	=41	=41	=41	=41	=41	=41	=41	=41	=41	=41	=41	=41	=41	=41	=41	=41
0r	.	0r	.	[0C	Chri-	0r	.	0r	.	0r	.	0G	Chri-	0r	.	0c	Chri-	[0g	Chri-	0ee	Chri-	0cc	Chri-
=42	=42	=42	=42	=42	=42	=42	=42	=42	=42	=42	=42	=42	=42	=42	=42	=42	=42	=42	=42	=42	=42	=42	=42
0r	.	0r	.	0C]	.	0r	.	0r	.	0r	.	1E	-ste	0r	.	1e	-ste	0g]	.	1.ee	-ste	1cc	-ste
.	.	.	.	.	.	.	.	.	.	.	.	2C	e-	.	.	1e	e-	.	.	.	.	1cc	e-
.	.	.	.	.	.	.	.	.	.	.	.	[2G	-lei-	.	.	.	.	.	.	4dd	.	.	.
.	.	.	.	.	.	.	.	.	.	.	.	.	.	.	.	.	.	.	.	4cc	.	.	.
=43	=43	=43	=43	=43	=43	=43	=43	=43	=43	=43	=43	=43	=43	=43	=43	=43	=43	=43	=43	=43	=43	=43	=43
0r	.	0r	.	0GG	.	0r	.	0r	.	0r	.	2G]	.	0r	.	[0d	-lei-	0g	-ste	1b	.	1.dd	-lei-
.	.	.	.	.	.	.	.	.	.	.	.	4F	.	.	.	.	.	.	.	.	.	.	.
.	.	.	.	.	.	.	.	.	.	.	.	4E	.	.	.	.	.	.	.	.	.	.	.
.	.	.	.	.	.	.	.	.	.	.	.	1D	-son,	.	.	.	.	.	.	1b	e-	.	.
.	.	.	.	.	.	.	.	.	.	.	.	.	.	.	.	.	.	.	.	.	.	2cc	.
=44	=44	=44	=44	=44	=44	=44	=44	=44	=44	=44	=44	=44	=44	=44	=44	=44	=44	=44	=44	=44	=44	=44	=44
0r	.	0r	.	1.D	-ste	0r	.	0r	.	0r	.	1r	.	0r	.	0d]	.	1.f	e-	1.dd	-lei-	1b	-son,
.	.	.	.	.	.	.	.	.	.	.	.	[1A	e-	.	.	.	.	.	.	.	.	[1a	e-
.	.	.	.	2E	e-	.	.	.	.	.	.	.	.	.	.	.	.	2g	.	4cc	.	.	.
.	.	.	.	.	.	.	.	.	.	.	.	.	.	.	.	.	.	.	.	4b	.	.	.
=45	=45	=45	=45	=45	=45	=45	=45	=45	=45	=45	=45	=45	=45	=45	=45	=45	=45	=45	=45	=45	=45	=45	=45
0r	.	0r	.	1F	.	0r	.	0r	.	0r	.	1A]	.	0r	.	1c	-son,	1a	.	1a	.	2a]	.
.	.	.	.	.	.	.	.	.	.	.	.	.	.	.	.	.	.	.	.	.	.	2g	.
.	.	.	.	1G	.	.	.	.	.	.	.	1B	.	.	.	1B	.	1d	.	[1dd	.	[1g	-lei-
=46	=46	=46	=46	=46	=46	=46	=46	=46	=46	=46	=46	=46	=46	=46	=46	=46	=46	=46	=46	=46	=46	=46	=46
0r	.	0r	.	0D	-lei-	0r	.	0r	.	0r	.	1.d	-lei-	0r	.	0A	.	0a	-lei-	0dd]	.	1g]	.
.	.	.	.	.	.	.	.	.	.	.	.	.	.	.	.	.	.	.	.	.	.	1f#i	.
.	.	.	.	.	.	.	.	.	.	.	.	2c	.	.	.	.	.	.	.	.	.	.	.
=47	=47	=47	=47	=47	=47	=47	=47	=47	=47	=47	=47	=47	=47	=47	=47	=47	=47	=47	=47	=47	=47	=47	=47
0r	.	0r	.	0GG	-son,	0r	.	0r	.	0r	.	0B	-son,	0r	.	0G	.	0b	-son,	0dd	-son,	0g	-son,
=48	=48	=48	=48	=48	=48	=48	=48	=48	=48	=48	=48	=48	=48	=48	=48	=48	=48	=48	=48	=48	=48	=48	=48
0C	Chri-	[0C	Chri-	0r	.	0g	Chri-	0e	Chri-	0c	Chri-	0r	.	[0G	Chri-	0r	.	0r	.	0r	.	0r	.
=49	=49	=49	=49	=49	=49	=49	=49	=49	=49	=49	=49	=49	=49	=49	=49	=49	=49	=49	=49	=49	=49	=49	=49
1C	-ste	0C]	.	0r	.	1c	-ste	1.e	-ste	1c	-ste	0r	.	0G]	.	0r	.	0r	.	0r	.	0r	.
1C	e-	.	.	.	.	1g	e-	.	.	1c	e-	.	.	.	.	.	.	.	.	.	.	.	.
.	.	.	.	.	.	.	.	4d	.	.	.	.	.	.	.	.	.	.	.	.	.	.	.
.	.	.	.	.	.	.	.	4c	.	.	.	.	.	.	.	.	.	.	.	.	.	.	.
=50	=50	=50	=50	=50	=50	=50	=50	=50	=50	=50	=50	=50	=50	=50	=50	=50	=50	=50	=50	=50	=50	=50	=50
1.D	-lei-	0GG	.	0r	.	2g	-lei-	1B	.	1.d	-lei-	0r	.	0G	-ste	0r	.	0r	.	0r	.	0r	.
.	.	.	.	.	.	4f	.	.	.	.	.	.	.	.	.	.	.	.	.	.	.	.	.
.	.	.	.	.	.	4e	.	.	.	.	.	.	.	.	.	.	.	.	.	.	.	.	.
.	.	.	.	.	.	[1d	.	1B	e-	.	.	.	.	.	.	.	.	.	.	.	.	.	.
2E	.	.	.	.	.	.	.	.	.	2c	.	.	.	.	.	.	.	.	.	.	.	.	.
=51	=51	=51	=51	=51	=51	=51	=51	=51	=51	=51	=51	=51	=51	=51	=51	=51	=51	=51	=51	=51	=51	=51	=51
0F	.	1.D	-ste	0r	.	2d]	.	0d	-lei-	1B	-son,	0r	.	1.F	e-	0r	.	0r	.	0r	.	0r	.
.	.	.	.	.	.	2e	.	.	.	.	.	.	.	.	.	.	.	.	.	.	.	.	.
.	.	.	.	.	.	[1f	.	.	.	[1A	e-	.	.	.	.	.	.	.	.	.	.	.	.
.	.	2E	e-	.	.	.	.	.	.	.	.	.	.	2G	.	.	.	.	.	.	.	.	.
=52	=52	=52	=52	=52	=52	=52	=52	=52	=52	=52	=52	=52	=52	=52	=52	=52	=52	=52	=52	=52	=52	=52	=52
0r	.	1F	.	0r	.	2f]	.	1c	.	2A]	.	0r	.	1A	.	0r	.	0r	.	0r	.	0r	.
.	.	.	.	.	.	2e	.	.	.	2G	.	.	.	.	.	.	.	.	.	.	.	.	.
.	.	1G	.	.	.	1d	-son,	1B	.	[1G	-lei-	.	.	[1d	-lei-	.	.	.	.	.	.	.	.
=53	=53	=53	=53	=53	=53	=53	=53	=53	=53	=53	=53	=53	=53	=53	=53	=53	=53	=53	=53	=53	=53	=53	=53
1.F	.	0D	-lei-	0r	.	1r	.	0A	.	1G]	.	0r	.	2d]	.	0r	.	0r	.	0r	.	0r	.
.	.	.	.	.	.	.	.	.	.	.	.	.	.	4c	.	.	.	.	.	.	.	.	.
.	.	.	.	.	.	.	.	.	.	.	.	.	.	4B	.	.	.	.	.	.	.	.	.
.	.	.	.	.	.	[1d	e-	.	.	1F#i	.	.	.	1A	.	.	.	.	.	.	.	.	.
2D	.	.	.	.	.	.	.	.	.	.	.	.	.	.	.	.	.	.	.	.	.	.	.
=54	=54	=54	=54	=54	=54	=54	=54	=54	=54	=54	=54	=54	=54	=54	=54	=54	=54	=54	=54	=54	=54	=54	=54
0D	-son,	0GG	-son,	0r	.	2d]	.	0G	-son,	0G	-son,	0r	.	0B	-son,	1.d	Chri-	0r	.	1r	.	2.b	Chri-
.	.	.	.	.	.	2c	.	.	.	.	.	.	.	.	.	.	.	.	.	.	.	.	.
.	.	.	.	.	.	.	.	.	.	.	.	.	.	.	.	.	.	.	.	.	.	4cc	.
.	.	.	.	.	.	1d	.	.	.	.	.	.	.	.	.	.	.	.	.	2.b	Chri-	1dd	-ste,
.	.	.	.	.	.	.	.	.	.	.	.	.	.	.	.	[2g	.	.	.	.	.	.	.
.	.	.	.	.	.	.	.	.	.	.	.	.	.	.	.	.	.	.	.	4cc	.	.	.
=55	=55	=55	=55	=55	=55	=55	=55	=55	=55	=55	=55	=55	=55	=55	=55	=55	=55	=55	=55	=55	=55	=55	=55
0r	.	0r	.	[0GG	Chri-	[0B	-lei-	0r	.	0r	.	1.D	Chri-	1.G	Chri-	2g]	.	2.b	Chri-	1dd	-ste,	2.g	Chri-
.	.	.	.	.	.	.	.	.	.	.	.	.	.	.	.	4f	.	.	.	.	.	.	.
.	.	.	.	.	.	.	.	.	.	.	.	.	.	.	.	4e	.	4cc	.	.	.	4a	.
.	.	.	.	.	.	.	.	.	.	.	.	.	.	.	.	1d	-ste	1dd	-ste,	2.g	Chri-	2.b	-ste
.	.	.	.	.	.	.	.	.	.	.	.	[2G	.	[2D	.	.	.	.	.	.	.	.	.
.	.	.	.	.	.	.	.	.	.	.	.	.	.	.	.	.	.	.	.	4a	.	4cc	.
=56	=56	=56	=56	=56	=56	=56	=56	=56	=56	=56	=56	=56	=56	=56	=56	=56	=56	=56	=56	=56	=56	=56	=56
0r	.	0r	.	0GG]	.	1.B]	.	0r	.	0r	.	2G]	.	1D]	.	1r	.	2.g	Chri-	1b	-ste	1dd	.
.	.	.	.	.	.	.	.	.	.	.	.	4F	.	.	.	.	.	.	.	.	.	.	.
.	.	.	.	.	.	.	.	.	.	.	.	4E	.	.	.	.	.	4a	.	.	.	.	.
.	.	.	.	.	.	.	.	.	.	.	.	1D	.	[1G	-ste	1d	e-	1b	-ste	[1g	e-	2d	e-
.	.	.	.	.	.	4c	-son,	.	.	.	.	.	.	.	.	.	.	.	.	.	.	[2g	-lei-
.	.	.	.	.	.	4B	.	.	.	.	.	.	.	.	.	.	.	.	.	.	.	.	.
=57	=57	=57	=57	=57	=57	=57	=57	=57	=57	=57	=57	=57	=57	=57	=57	=57	=57	=57	=57	=57	=57	=57	=57
0r	.	0r	.	[0C	-ste	1c	Chri-	0r	.	0r	.	1C	-ste,	1G]	.	1.e	.	1.g	e-	2g]	.	4g]	.
.	.	.	.	.	.	.	.	.	.	.	.	.	.	.	.	.	.	.	.	.	.	4f	.
.	.	.	.	.	.	.	.	.	.	.	.	.	.	.	.	.	.	.	.	1cc	-lei-	4e	.
.	.	.	.	.	.	.	.	.	.	.	.	.	.	.	.	.	.	.	.	.	.	4d	.
.	.	.	.	.	.	1c	-ste	.	.	.	.	[1G	Chri-	[1E	e-	.	.	.	.	.	.	[1c	.
.	.	.	.	.	.	.	.	.	.	.	.	.	.	.	.	[2g	.	[2cc	-lei-	4b	.	.	.
.	.	.	.	.	.	.	.	.	.	.	.	.	.	.	.	.	.	.	.	4a	.	.	.
=58	=58	=58	=58	=58	=58	=58	=58	=58	=58	=58	=58	=58	=58	=58	=58	=58	=58	=58	=58	=58	=58	=58	=58
0r	.	0r	.	0C]	.	1r	.	0r	.	0r	.	0G]	.	2E]	.	2g]	.	2cc]	.	1g	-son,	0c_	.
.	.	.	.	.	.	.	.	.	.	.	.	.	.	2F	.	4f	.	4b	.	.	.	.	.
.	.	.	.	.	.	.	.	.	.	.	.	.	.	.	.	4e	.	4a	.	.	.	.	.
.	.	.	.	.	.	1C	e-	.	.	.	.	.	.	2G	-lei-	1e	-lei-	1g	-son,	2r	.	.	.
.	.	.	.	.	.	.	.	.	.	.	.	.	.	2C	.	.	.	.	.	[2cc	Chri-	.	.
=59	=59	=59	=59	=59	=59	=59	=59	=59	=59	=59	=59	=59	=59	=59	=59	=59	=59	=59	=59	=59	=59	=59	=59
0r	.	0r	.	0FF	e-	1.C	-lei-	0r	.	0r	.	0A	-ste	0F	-son,	0f	-son,	2f	Chri-	4cc]	.	1c]	.
.	.	.	.	.	.	.	.	.	.	.	.	.	.	.	.	.	.	.	.	4b	.	.	.
.	.	.	.	.	.	.	.	.	.	.	.	.	.	.	.	.	.	4e	.	4a	.	.	.
.	.	.	.	.	.	.	.	.	.	.	.	.	.	.	.	.	.	4d	.	4g	.	.	.
.	.	.	.	.	.	.	.	.	.	.	.	.	.	.	.	.	.	1c	-ste	2f	-ste	1f	.
.	.	.	.	.	.	2D	.	.	.	.	.	.	.	.	.	.	.	.	.	[2cc	e-	.	.
=60	=60	=60	=60	=60	=60	=60	=60	=60	=60	=60	=60	=60	=60	=60	=60	=60	=60	=60	=60	=60	=60	=60	=60
0r	.	0r	.	1C	-lei-	1E	-son,	0r	.	0r	.	1G	e-	1r	.	1e	e-	2r	.	2cc]	.	1g	-son,
.	.	.	.	.	.	.	.	.	.	.	.	.	.	.	.	.	.	2c	e-	4b	.	.	.
.	.	.	.	.	.	.	.	.	.	.	.	.	.	.	.	.	.	.	.	4a	.	.	.
.	.	.	.	1D	.	[1A	e-	.	.	.	.	1F	.	1D	Chri-	[1d	-lei-	2.f	-lei-	1a	-le-	2r	.
.	.	.	.	.	.	.	.	.	.	.	.	.	.	.	.	.	.	.	.	.	.	2a	e-
.	.	.	.	.	.	.	.	.	.	.	.	.	.	.	.	.	.	4g	.	.	.	.	.
=61	=61	=61	=61	=61	=61	=61	=61	=61	=61	=61	=61	=61	=61	=61	=61	=61	=61	=61	=61	=61	=61	=61	=61
0r	.	0r	.	0AA	.	2A]	.	0r	.	0r	.	0E	-lei-	1A	-ste	2d]	.	4a	.	1r	.	2.cc	-lei-
.	.	.	.	.	.	.	.	.	.	.	.	.	.	.	.	.	.	4b	.	.	.	.	.
.	.	.	.	.	.	4G	.	.	.	.	.	.	.	.	.	4c#i	.	2.cc	.	.	.	.	.
.	.	.	.	.	.	4F	.	.	.	.	.	.	.	.	.	4B	.	.	.	.	.	4dd	.
.	.	.	.	.	.	1E	.	.	.	.	.	.	.	2r	.	1c#i	.	.	.	1a	-i-	1ee	.
.	.	.	.	.	.	.	.	.	.	.	.	.	.	.	.	.	.	4b	.	.	.	.	.
.	.	.	.	.	.	.	.	.	.	.	.	.	.	[2A	e-	.	.	4a	.	.	.	.	.
.	.	.	.	.	.	.	.	.	.	.	.	.	.	.	.	.	.	4g	.	.	.	.	.
=62	=62	=62	=62	=62	=62	=62	=62	=62	=62	=62	=62	=62	=62	=62	=62	=62	=62	=62	=62	=62	=62	=62	=62
0r	.	0r	.	0D	-son,	1F	-lei-	0r	.	0r	.	0D	-son,	2A]	.	0d	-son,	0f	-son,	0a	-son,	1a	.
.	.	.	.	.	.	.	.	.	.	.	.	.	.	4G	.	.	.	.	.	.	.	.	.
.	.	.	.	.	.	.	.	.	.	.	.	.	.	4F	.	.	.	.	.	.	.	.	.
.	.	.	.	.	.	1f	-son,	.	.	.	.	.	.	1F	-lei-	.	.	.	.	.	.	1dd	-son,
=63	=63	=63	=63	=63	=63	=63	=63	=63	=63	=63	=63	=63	=63	=63	=63	=63	=63	=63	=63	=63	=63	=63	=63
0r	.	[0GG	Chri-	0r	.	1.d	Chri-	1r	.	2.B	Chri-	0r	.	0G	-son,	0r	.	0r	.	0r	.	0r	.
.	.	.	.	.	.	.	.	.	.	4c	.	.	.	.	.	.	.	.	.	.	.	.	.
.	.	.	.	.	.	.	.	2.B	Chri-	1d	-ste,	.	.	.	.	.	.	.	.	.	.	.	.
.	.	.	.	.	.	[2g	.	.	.	.	.	.	.	.	.	.	.	.	.	.	.	.	.
.	.	.	.	.	.	.	.	4c	.	.	.	.	.	.	.	.	.	.	.	.	.	.	.
=64	=64	=64	=64	=64	=64	=64	=64	=64	=64	=64	=64	=64	=64	=64	=64	=64	=64	=64	=64	=64	=64	=64	=64
2.B	Chri-	0GG_	.	0r	.	2g]	.	1d	-ste,	2.G	Chri-	0r	.	1.D	Chri-	0r	.	0r	.	0r	.	0r	.
.	.	.	.	.	.	4f	.	.	.	.	.	.	.	.	.	.	.	.	.	.	.	.	.
4c	.	.	.	.	.	4e	.	.	.	4A	.	.	.	.	.	.	.	.	.	.	.	.	.
1d	-ste,	.	.	.	.	1d	-ste	2.G	Chri-	2.B	-ste	.	.	.	.	.	.	.	.	.	.	.	.
.	.	.	.	.	.	.	.	.	.	.	.	.	.	[2G	.	.	.	.	.	.	.	.	.
.	.	.	.	.	.	.	.	4A	.	4c	.	.	.	.	.	.	.	.	.	.	.	.	.
=65	=65	=65	=65	=65	=65	=65	=65	=65	=65	=65	=65	=65	=65	=65	=65	=65	=65	=65	=65	=65	=65	=65	=65
2.G	Chri-	0GG]	.	0r	.	1r	.	1B	-ste	1d	.	0r	.	2G]	.	0r	.	0r	.	0r	.	0r	.
.	.	.	.	.	.	.	.	.	.	.	.	.	.	4F	.	.	.	.	.	.	.	.	.
4A	.	.	.	.	.	.	.	.	.	.	.	.	.	4E	.	.	.	.	.	.	.	.	.
1B	-ste	.	.	.	.	1d	e-	[1G	e-	2D	e-	.	.	1D	.	.	.	.	.	.	.	.	.
.	.	.	.	.	.	.	.	.	.	[2G	-lei-	.	.	.	.	.	.	.	.	.	.	.	.
=66	=66	=66	=66	=66	=66	=66	=66	=66	=66	=66	=66	=66	=66	=66	=66	=66	=66	=66	=66	=66	=66	=66	=66
1.G	e-	[0C	-ste	0r	.	[0e	-lei-	2G]	.	4G]	.	0r	.	1C	-ste,	0r	.	0r	.	0r	.	0r	.
.	.	.	.	.	.	.	.	.	.	4F	.	.	.	.	.	.	.	.	.	.	.	.	.
.	.	.	.	.	.	.	.	1c	-lei-	4E	.	.	.	.	.	.	.	.	.	.	.	.	.
.	.	.	.	.	.	.	.	.	.	4D	.	.	.	.	.	.	.	.	.	.	.	.	.
.	.	.	.	.	.	.	.	.	.	1C	-son,	.	.	[1G	Chri-	.	.	.	.	.	.	.	.
[2c	-lei-	.	.	.	.	.	.	4B	.	.	.	.	.	.	.	.	.	.	.	.	.	.	.
.	.	.	.	.	.	.	.	4A	.	.	.	.	.	.	.	.	.	.	.	.	.	.	.
=67	=67	=67	=67	=67	=67	=67	=67	=67	=67	=67	=67	=67	=67	=67	=67	=67	=67	=67	=67	=67	=67	=67	=67
2c]	.	0C]	.	0r	.	0e]	.	1G	-son,	1r	.	0r	.	0G]	.	0r	.	0r	.	0r	.	0r	.
4B	.	.	.	.	.	.	.	.	.	.	.	.	.	.	.	.	.	.	.	.	.	.	.
4A	.	.	.	.	.	.	.	.	.	.	.	.	.	.	.	.	.	.	.	.	.	.	.
1G	-son,	.	.	.	.	.	.	2r	.	[1C	Chri-	.	.	.	.	.	.	.	.	.	.	.	.
.	.	.	.	.	.	.	.	[2c	Chri-	.	.	.	.	.	.	.	.	.	.	.	.	.	.
=68	=68	=68	=68	=68	=68	=68	=68	=68	=68	=68	=68	=68	=68	=68	=68	=68	=68	=68	=68	=68	=68	=68	=68
2F	Chri-	0FF	e-	0r	.	0f	.	4c]	.	1C]	.	0r	.	0A	-ste	0r	.	0r	.	0r	.	0r	.
.	.	.	.	.	.	.	.	4B	.	.	.	.	.	.	.	.	.	.	.	.	.	.	.
4E	.	.	.	.	.	.	.	4A	.	.	.	.	.	.	.	.	.	.	.	.	.	.	.
4D	.	.	.	.	.	.	.	4G	.	.	.	.	.	.	.	.	.	.	.	.	.	.	.
1C	-ste	.	.	.	.	.	.	2F	-ste	1F	.	.	.	.	.	.	.	.	.	.	.	.	.
.	.	.	.	.	.	.	.	[2c	e-	.	.	.	.	.	.	.	.	.	.	.	.	.	.
=69	=69	=69	=69	=69	=69	=69	=69	=69	=69	=69	=69	=69	=69	=69	=69	=69	=69	=69	=69	=69	=69	=69	=69
2r	.	1C	-lei-	0r	.	1e	.	2c]	.	1G	-ste	0r	.	1G	e-	0r	.	0r	.	0r	.	0r	.
2C	e-	.	.	.	.	.	.	4B	.	.	.	.	.	.	.	.	.	.	.	.	.	.	.
.	.	.	.	.	.	.	.	4A	.	.	.	.	.	.	.	.	.	.	.	.	.	.	.
2.F	-lei-	1D	.	.	.	[1d	.	[1A	-lei-	2r	.	.	.	1F	.	.	.	.	.	.	.	.	.
.	.	.	.	.	.	.	.	.	.	2A	e-	.	.	.	.	.	.	.	.	.	.	.	.
4G	.	.	.	.	.	.	.	.	.	.	.	.	.	.	.	.	.	.	.	.	.	.	.
=70	=70	=70	=70	=70	=70	=70	=70	=70	=70	=70	=70	=70	=70	=70	=70	=70	=70	=70	=70	=70	=70	=70	=70
4A	.	0AA	.	0r	.	2d]	.	0A]	.	2.c	-lei-	0r	.	0E	-lei-	0r	.	0r	.	0r	.	0r	.
4B	.	.	.	.	.	.	.	.	.	.	.	.	.	.	.	.	.	.	.	.	.	.	.
2.c	.	.	.	.	.	4c#i	.	.	.	.	.	.	.	.	.	.	.	.	.	.	.	.	.
.	.	.	.	.	.	4B	.	.	.	4d	.	.	.	.	.	.	.	.	.	.	.	.	.
.	.	.	.	.	.	1c#i	.	.	.	1e	.	.	.	.	.	.	.	.	.	.	.	.	.
4B	.	.	.	.	.	.	.	.	.	.	.	.	.	.	.	.	.	.	.	.	.	.	.
4A	.	.	.	.	.	.	.	.	.	.	.	.	.	.	.	.	.	.	.	.	.	.	.
4G	.	.	.	.	.	.	.	.	.	.	.	.	.	.	.	.	.	.	.	.	.	.	.
=71	=71	=71	=71	=71	=71	=71	=71	=71	=71	=71	=71	=71	=71	=71	=71	=71	=71	=71	=71	=71	=71	=71	=71
0F	-son,	0D	-son,	0r	.	0d	-son,	0A	-son,	0f	-son,	0r	.	0D	-son,	0r	.	0r	.	0r	.	0r	.
=72	=72	=72	=72	=72	=72	=72	=72	=72	=72	=72	=72	=72	=72	=72	=72	=72	=72	=72	=72	=72	=72	=72	=72
0r	.	0r	.	1GG	Chri-	0r	.	0r	.	0r	.	1.G	Chri-	0r	.	1d	Chri-	1g	Chri-	1b	Chri-	1dd	Chri-
.	.	.	.	1C	.	.	.	.	.	.	.	.	.	.	.	1c	.	2e	.	1cc	.	1ee	.
.	.	.	.	.	.	.	.	.	.	.	.	[2G	-ste	.	.	.	.	[2g	-ste e-	.	.	.	.
=73	=73	=73	=73	=73	=73	=73	=73	=73	=73	=73	=73	=73	=73	=73	=73	=73	=73	=73	=73	=73	=73	=73	=73
0r	.	1D	Chri-	1GG	.	0r	.	0r	.	0r	.	2G]	.	0r	.	2d	.	4g]	.	2b	.	1dd	.
.	.	.	.	.	.	.	.	.	.	.	.	.	.	.	.	.	.	4d	.	.	.	.	.
.	.	.	.	.	.	.	.	.	.	.	.	2D	e-	.	.	2B	.	1g	-lei-	2g	.	.	.
.	.	2r	.	1D	-ste	.	.	.	.	.	.	2.F	-lei-	.	.	2A	-ste	.	.	1a	-ste	1dd	-ste
.	.	2D	.	.	.	.	.	.	.	.	.	.	.	.	.	2d	e-	2f	.	.	.	.	.
.	.	.	.	.	.	.	.	.	.	.	.	4E	.	.	.	.	.	.	.	.	.	.	.
=74	=74	=74	=74	=74	=74	=74	=74	=74	=74	=74	=74	=74	=74	=74	=74	=74	=74	=74	=74	=74	=74	=74	=74
0r	.	1D	-ste	1GG	e-	0r	.	0r	.	0r	.	2D	-son,	0r	.	2d	-lei-	2g	-son,	2g	e-	2b	e-
.	.	.	.	.	.	.	.	.	.	.	.	2G	e-	.	.	2G	.	2d	e-	2b	.	1dd	-lei-
.	.	2r	.	2.D	-lei-	.	.	.	.	.	.	2F	-lei-	.	.	2A	.	2.f	-lei-	2.a	-lei-	.	.
.	.	[2D	e-	.	.	.	.	.	.	.	.	[2A	.	.	.	[2d	.	.	.	.	.	4cc	.
.	.	.	.	4E	.	.	.	.	.	.	.	.	.	.	.	.	.	4g	.	4g	.	4b	.
=75	=75	=75	=75	=75	=75	=75	=75	=75	=75	=75	=75	=75	=75	=75	=75	=75	=75	=75	=75	=75	=75	=75	=75
0r	.	2D]	.	2F	.	0r	.	0r	.	0r	.	2A]	.	0r	.	4d]	.	2a	-son,	4f	.	2a	.
.	.	.	.	.	.	.	.	.	.	.	.	.	.	.	.	4c	.	.	.	4e	.	.	.
.	.	2GG	.	1G	.	.	.	.	.	.	.	4B	.	.	.	2B	.	1.dd	Chri-	2d	-son,	2g	.
.	.	.	.	.	.	.	.	.	.	.	.	4G	.	.	.	.	.	.	.	.	.	.	.
.	.	1D	-lei-	.	.	.	.	.	.	.	.	1D	-son,	.	.	1A	-son,	.	.	2r	.	1a	.
.	.	.	.	2F#i	.	.	.	.	.	.	.	.	.	.	.	.	.	.	.	2a	Chri-	.	.
=76	=76	=76	=76	=76	=76	=76	=76	=76	=76	=76	=76	=76	=76	=76	=76	=76	=76	=76	=76	=76	=76	=76	=76
0r	.	1GG	-son,	1G	.	0r	.	0r	.	0r	.	1r	.	0r	.	1r	.	2.dd	-ste	2b	-ste	1g	-son,
.	.	.	.	.	.	.	.	.	.	.	.	.	.	.	.	.	.	.	.	2.dd	e-	.	.
.	.	.	.	.	.	.	.	.	.	.	.	.	.	.	.	.	.	4cc	.	.	.	.	.
.	.	1r	.	1GG	-son,	.	.	.	.	.	.	[1G	Chri-	.	.	2.d	e-	4b	.	.	.	2r	.
.	.	.	.	.	.	.	.	.	.	.	.	.	.	.	.	.	.	4a	.	4cc	.	.	.
.	.	.	.	.	.	.	.	.	.	.	.	.	.	.	.	.	.	2b	.	4b	.	[2dd	e-
.	.	.	.	.	.	.	.	.	.	.	.	.	.	.	.	4c	.	.	.	4a	.	.	.
=77	=77	=77	=77	=77	=77	=77	=77	=77	=77	=77	=77	=77	=77	=77	=77	=77	=77	=77	=77	=77	=77	=77	=77
0r	.	0r	.	2r	.	0r	.	0r	.	0r	.	2G]	.	0r	.	4B	.	2g	e-	2b	-lei-	4dd]	.
.	.	.	.	.	.	.	.	.	.	.	.	.	.	.	.	4A	.	.	.	.	.	4cc	.
.	.	.	.	1GG	Chri-	.	.	.	.	.	.	1G	-ste	.	.	1d	.	2d	.	1g	-son,	4b	.
.	.	.	.	.	.	.	.	.	.	.	.	.	.	.	.	.	.	.	.	.	.	4a	.
.	.	.	.	.	.	.	.	.	.	.	.	.	.	.	.	.	.	2g	-lei-	.	.	2b	.
.	.	.	.	2AA	.	.	.	.	.	.	.	[2C	e-	.	.	[2c	.	2e	.	2cc	Chri-	[2a	.
=78	=78	=78	=78	=78	=78	=78	=78	=78	=78	=78	=78	=78	=78	=78	=78	=78	=78	=78	=78	=78	=78	=78	=78
0r	.	0r	.	2FF	-ste	0r	.	0r	.	1r	.	2C]	.	0r	.	2c]	.	2f	-son,	2a	-ste	4a]	.
.	.	.	.	.	.	.	.	.	.	.	.	.	.	.	.	.	.	.	.	.	.	4g	.
.	.	.	.	2GG	e-	.	.	.	.	.	.	2D	.	.	.	2B	.	2d	.	2.dd	e-	1g	.
.	.	.	.	1D	-lei-	.	.	.	.	[1d	e-	2.F	-lei-	.	.	1A	-lei-	2r	.	.	.	.	.
.	.	.	.	.	.	.	.	.	.	.	.	.	.	.	.	.	.	.	.	4cc	.	.	.
.	.	.	.	.	.	.	.	.	.	.	.	.	.	.	.	.	.	2dd	e-	2a	.	2f#i	-lei-
.	.	.	.	.	.	.	.	.	.	.	.	4E	.	.	.	.	.	.	.	.	.	.	.
=79	=79	=79	=79	=79	=79	=79	=79	=79	=79	=79	=79	=79	=79	=79	=79	=79	=79	=79	=79	=79	=79	=79	=79
0r	.	0r	.	0GG	-son,	1r	.	0r	.	2d]	.	0D	-son,	0r	.	1G	-son,	1dd	-lei-	1b	-lei-	1g	.
.	.	.	.	.	.	.	.	.	.	2.B	-lei-	.	.	.	.	.	.	.	.	.	.	.	.
.	.	.	.	.	.	1G	e-	.	.	.	.	.	.	.	.	[1g	e-	1b	.	1g	-son,	1dd	-son,
.	.	.	.	.	.	.	.	.	.	4c	.	.	.	.	.	.	.	.	.	.	.	.	.
.	.	.	.	.	.	.	.	.	.	2d	.	.	.	.	.	.	.	.	.	.	.	.	.
=80	=80	=80	=80	=80	=80	=80	=80	=80	=80	=80	=80	=80	=80	=80	=80	=80	=80	=80	=80	=80	=80	=80	=80
1r	.	[0C	Chri-	1.G	e-	2.c	-lei-	0r	.	1G	-son,	1r	.	1G	e-	2g]	.	1cc	.	1r	.	1.ee	e-
.	.	.	.	.	.	.	.	.	.	.	.	.	.	.	.	2.e	-lei-	.	.	.	.	.	.
.	.	.	.	.	.	4d	.	.	.	.	.	.	.	.	.	.	.	.	.	.	.	.	.
[1G	e-	.	.	.	.	2.e	.	.	.	1r	.	1G	e-	2.c	-lei-	.	.	1g	-son,	[1ee	e-	.	.
.	.	.	.	.	.	.	.	.	.	.	.	.	.	.	.	4f	.	.	.	.	.	.	.
.	.	.	.	[2E	-lei-	.	.	.	.	.	.	.	.	.	.	2g	.	.	.	.	.	[2cc	-lei-
.	.	.	.	.	.	4f	.	.	.	.	.	.	.	4d	.	.	.	.	.	.	.	.	.
=81	=81	=81	=81	=81	=81	=81	=81	=81	=81	=81	=81	=81	=81	=81	=81	=81	=81	=81	=81	=81	=81	=81	=81
2G]	.	0C]	.	4E]	.	1g	.	1r	.	1.G	e-	2.c	-lei-	2.e	.	2c	-son,	1.ee	e-	2ee]	.	2cc]	.
.	.	.	.	4F	.	.	.	.	.	.	.	.	.	.	.	.	.	.	.	.	.	.	.
2.E	-lei-	.	.	2G	.	.	.	.	.	.	.	.	.	.	.	2G	e-	.	.	1cc	-lei-	4b	.
.	.	.	.	.	.	.	.	.	.	.	.	4d	.	4f	.	.	.	.	.	.	.	4a	.
.	.	.	.	1C	-son,	1G	-son,	[1G	e-	.	.	2.e	.	1g	.	2.c	-lei-	.	.	.	.	1g	-son,
4F	.	.	.	.	.	.	.	.	.	.	.	.	.	.	.	.	.	.	.	.	.	.	.
2G	.	.	.	.	.	.	.	.	.	[2E	-lei-	.	.	.	.	.	.	[2cc	-lei-	4b	.	.	.
.	.	.	.	.	.	.	.	.	.	.	.	4f	.	.	.	4d	.	.	.	4a	.	.	.
=82	=82	=82	=82	=82	=82	=82	=82	=82	=82	=82	=82	=82	=82	=82	=82	=82	=82	=82	=82	=82	=82	=82	=82
1C	-son,	0C	-ste	1r	.	1r	.	2G]	.	4E]	.	1g	.	1G	-son,	2.e	.	2cc]	.	1g	-son,	0r	.
.	.	.	.	.	.	.	.	.	.	4F	.	.	.	.	.	.	.	.	.	.	.	.	.
.	.	.	.	.	.	.	.	2.E	-lei-	2G	.	.	.	.	.	.	.	4b	.	.	.	.	.
.	.	.	.	.	.	.	.	.	.	.	.	.	.	.	.	4f	.	4a	.	.	.	.	.
1r	.	.	.	[1E	e-	1E	e-	.	.	1C	-son,	1G	-son,	1r	.	2g	.	1g	-son,	1r	.	.	.
.	.	.	.	.	.	.	.	4F	.	.	.	.	.	.	.	.	.	.	.	.	.	.	.
.	.	.	.	.	.	.	.	2G	.	.	.	.	.	.	.	2G	.	.	.	.	.	.	.
=83	=83	=83	=83	=83	=83	=83	=83	=83	=83	=83	=83	=83	=83	=83	=83	=83	=83	=83	=83	=83	=83	=83	=83
1.E	e-	[0AA	.	2E]	.	2.A	-lei-	1C	-son,	1r	.	1r	.	1E	e-	1c	-son,	0r	.	1r	.	1.cc	e-
.	.	.	.	2.C	-lei-	.	.	.	.	.	.	.	.	.	.	.	.	.	.	.	.	.	.
.	.	.	.	.	.	4B	.	.	.	.	.	.	.	.	.	.	.	.	.	.	.	.	.
.	.	.	.	.	.	2.c	.	1r	.	[1e	e-	1E	e-	2.A	-lei-	1r	.	.	.	[1cc	e-	.	.
.	.	.	.	4D	.	.	.	.	.	.	.	.	.	.	.	.	.	.	.	.	.	.	.
[2C	-lei-	.	.	2E	.	.	.	.	.	.	.	.	.	.	.	.	.	.	.	.	.	[2a	-lei-
.	.	.	.	.	.	4d	.	.	.	.	.	.	.	4B	.	.	.	.	.	.	.	.	.
=84	=84	=84	=84	=84	=84	=84	=84	=84	=84	=84	=84	=84	=84	=84	=84	=84	=84	=84	=84	=84	=84	=84	=84
4C]	.	0AA_	.	1AA	.	1e	.	1.e	e-	2e]	.	2.A	-lei-	2.c	.	1E	e-	1.cc	e-	2cc]	.	2a]	.
4D	.	.	.	.	.	.	.	.	.	.	.	.	.	.	.	.	.	.	.	.	.	.	.
2E	.	.	.	.	.	.	.	.	.	2.c	-lei-	.	.	.	.	.	.	.	.	1a	-lei-	4g	.
.	.	.	.	.	.	.	.	.	.	.	.	4B	.	4d	.	.	.	.	.	.	.	4f	.
1AA	.	.	.	1E	-son,	1E	-son,	.	.	.	.	2.c	.	1e	.	2.A	-lei-	.	.	.	.	1e	-son,
.	.	.	.	.	.	.	.	.	.	4d	.	.	.	.	.	.	.	.	.	.	.	.	.
.	.	.	.	.	.	.	.	[2c	-lei-	2e	.	.	.	.	.	.	.	[2a	-lei-	4g	.	.	.
.	.	.	.	.	.	.	.	.	.	.	.	4d	.	.	.	4B	.	.	.	4f	.	.	.
=85	=85	=85	=85	=85	=85	=85	=85	=85	=85	=85	=85	=85	=85	=85	=85	=85	=85	=85	=85	=85	=85	=85	=85
1E	-son,	0AA]	.	0r	.	1r	.	4c]	.	1A	.	1e	.	1E	-son,	2.c	.	2a]	.	1e	-son,	0r	.
.	.	.	.	.	.	.	.	4d	.	.	.	.	.	.	.	.	.	.	.	.	.	.	.
.	.	.	.	.	.	.	.	2e	.	.	.	.	.	.	.	.	.	4g	.	.	.	.	.
.	.	.	.	.	.	.	.	.	.	.	.	.	.	.	.	4d	.	4f	.	.	.	.	.
1r	.	.	.	.	.	1c	e-	1A	.	1e	-son,	1E	-son,	1r	.	1e	.	1e	-son,	1r	.	.	.
=86	=86	=86	=86	=86	=86	=86	=86	=86	=86	=86	=86	=86	=86	=86	=86	=86	=86	=86	=86	=86	=86	=86	=86
1r	.	[0C	e-	1.G	e-	2.c	-lei-	1e	-son,	0r	.	1r	.	1G	e-	1E	-son,	0r	.	1r	.	1.ee	e-
.	.	.	.	.	.	4d	.	.	.	.	.	.	.	.	.	.	.	.	.	.	.	.	.
[1G	e-	.	.	.	.	2.e	.	1r	.	.	.	1G	e-	2.c	-lei-	1r	.	.	.	[1ee	e-	.	.
.	.	.	.	[2E	-lei-	.	.	.	.	.	.	.	.	.	.	.	.	.	.	.	.	[2cc	-lei-
.	.	.	.	.	.	4f	.	.	.	.	.	.	.	4d	.	.	.	.	.	.	.	.	.
=87	=87	=87	=87	=87	=87	=87	=87	=87	=87	=87	=87	=87	=87	=87	=87	=87	=87	=87	=87	=87	=87	=87	=87
2G]	.	0C_	.	4E]	.	1g	.	1r	.	1.G	e-	2.c	-lei-	2.e	.	1G	e-	1.ee	e-	2ee]	.	2cc]	.
.	.	.	.	4F	.	.	.	.	.	.	.	.	.	.	.	.	.	.	.	.	.	.	.
2.E	-lei-	.	.	2G	.	.	.	.	.	.	.	.	.	.	.	.	.	.	.	1cc	-lei-	4b	.
.	.	.	.	.	.	.	.	.	.	.	.	4d	.	4f	.	.	.	.	.	.	.	4a	.
.	.	.	.	1C	-son,	1G	-son,	[1G	e-	.	.	2.e	.	1g	.	2.c	-lei-	.	.	.	.	1g	-son,
4F	.	.	.	.	.	.	.	.	.	.	.	.	.	.	.	.	.	.	.	.	.	.	.
2G	.	.	.	.	.	.	.	.	.	[2E	-lei-	.	.	.	.	.	.	[2cc	-lei-	4b	.	.	.
.	.	.	.	.	.	.	.	.	.	.	.	4f	.	.	.	4d	.	.	.	4a	.	.	.
=88	=88	=88	=88	=88	=88	=88	=88	=88	=88	=88	=88	=88	=88	=88	=88	=88	=88	=88	=88	=88	=88	=88	=88
1C	.	0C]	.	1r	.	1r	.	2G]	.	4E]	.	1g	.	1G	-son,	2.e	.	2cc]	.	1g	-son,	0r	.
.	.	.	.	.	.	.	.	.	.	4F	.	.	.	.	.	.	.	.	.	.	.	.	.
.	.	.	.	.	.	.	.	2.E	-lei-	2G	.	.	.	.	.	.	.	4b	.	.	.	.	.
.	.	.	.	.	.	.	.	.	.	.	.	.	.	.	.	4f	.	4a	.	.	.	.	.
1E	-son,	.	.	1C	Chri-	2r	.	.	.	1C	-son,	1G	-son,	1r	.	1g	-son,	1g	-son,	1r	.	.	.
.	.	.	.	.	.	.	.	4F	.	.	.	.	.	.	.	.	.	.	.	.	.	.	.
.	.	.	.	.	.	2G	e-	[2G	.	.	.	.	.	.	.	.	.	.	.	.	.	.	.
=89	=89	=89	=89	=89	=89	=89	=89	=89	=89	=89	=89	=89	=89	=89	=89	=89	=89	=89	=89	=89	=89	=89	=89
2D	e-	[0D	-lei-	[0GG	-ste	2.B	-lei-	2G]	.	1r	.	2r	.	1d	e-	2r	.	0r	.	1r	.	1.dd	e-
1G	-lei-	.	.	.	.	.	.	4F	.	.	.	2G	e-	.	.	1d	e-	.	.	.	.	.	.
.	.	.	.	.	.	4c	.	4E	.	.	.	.	.	.	.	.	.	.	.	.	.	.	.
.	.	.	.	.	.	1d	-son,	1D	-son,	2r	.	2.B	-lei-	2r	.	.	.	.	.	[1dd	e-	.	.
4F	.	.	.	.	.	.	.	.	.	[2G	e-	.	.	2G	.	4e	-lei-	.	.	.	.	[2b	-lei-
4E	.	.	.	.	.	.	.	.	.	.	.	4c	.	.	.	4f	.	.	.	.	.	.	.
=90	=90	=90	=90	=90	=90	=90	=90	=90	=90	=90	=90	=90	=90	=90	=90	=90	=90	=90	=90	=90	=90	=90	=90
1D	-son,	0D_	.	0GG_	.	2r	.	2r	.	2G]	.	1d	-son,	2.B	-lei-	1g	-son,	1.dd	e-	2dd]	.	2b]	.
.	.	.	.	.	.	2G	e-	1G	e-	4F	-lei-	.	.	.	.	.	.	.	.	1b	-lei-	4a	.
.	.	.	.	.	.	.	.	.	.	4E	.	.	.	4c	.	.	.	.	.	.	.	4g	.
2r	.	.	.	.	.	2.B	-lei-	.	.	1D	-son,	2r	.	1d	-son,	1r	.	.	.	.	.	1g	-son,
[2G	e-	.	.	.	.	.	.	4F	-lei-	.	.	2G	e-	.	.	.	.	[2b	-lei-	4a	.	.	.
.	.	.	.	.	.	4c	.	4E	.	.	.	.	.	.	.	.	.	.	.	4g	.	.	.
=91	=91	=91	=91	=91	=91	=91	=91	=91	=91	=91	=91	=91	=91	=91	=91	=91	=91	=91	=91	=91	=91	=91	=91
2G]	.	0D]	.	0GG]	.	1d	.	1D	-son,	2r	.	2.B	-lei-	2r	.	2r	.	2b]	.	1g	-son,	0r	.
4F	-lei-	.	.	.	.	.	.	.	.	1G	e-	.	.	2G	e-	1d	e-	4a	.	.	.	.	.
4E	.	.	.	.	.	.	.	.	.	.	.	4c	.	.	.	.	.	4g	.	.	.	.	.
1D	-son,	.	.	.	.	1G	.	2r	.	.	.	1d	.	2.B	-lei-	.	.	1g	-son,	1r	.	.	.
.	.	.	.	.	.	.	.	[2G	e-	4F	-lei-	.	.	.	.	4e	-lei-	.	.	.	.	.	.
.	.	.	.	.	.	.	.	.	.	4E	.	.	.	8AL	.	4f	.	.	.	.	.	.	.
.	.	.	.	.	.	.	.	.	.	.	.	.	.	8GJ	.	.	.	.	.	.	.	.	.
=92	=92	=92	=92	=92	=92	=92	=92	=92	=92	=92	=92	=92	=92	=92	=92	=92	=92	=92	=92	=92	=92	=92	=92
1r	.	[0C	.	1.G	e-	[0cl	-son.	2G]	.	1E	-son,	[0el	-son.	[0Gl	-son.	1g	-son,	0r	.	1r	.	1.ee	e-
.	.	.	.	.	.	.	.	4F	-lei-	.	.	.	.	.	.	.	.	.	.	.	.	.	.
.	.	.	.	.	.	.	.	4E	.	.	.	.	.	.	.	.	.	.	.	.	.	.	.
[1G	e-	.	.	.	.	.	.	1E	-son,	1r	.	.	.	.	.	2r	.	.	.	[1ee	e-	.	.
.	.	.	.	[2E	-lei-	.	.	.	.	.	.	.	.	.	.	2G	e-	.	.	.	.	[2cc	-lei-
=93	=93	=93	=93	=93	=93	=93	=93	=93	=93	=93	=93	=93	=93	=93	=93	=93	=93	=93	=93	=93	=93	=93	=93
2G]	.	0C]	.	4E]	.	0c_	.	1r	.	1.G	e-	0e_	.	0G_	.	2.c	-lei-	1.ee	e-	2ee]	.	2cc]	.
.	.	.	.	4F	.	.	.	.	.	.	.	.	.	.	.	.	.	.	.	.	.	.	.
2.E	-lei-	.	.	2G	.	.	.	.	.	.	.	.	.	.	.	.	.	.	.	1cc	-lei-	4b	.
.	.	.	.	.	.	.	.	.	.	.	.	.	.	.	.	4d	.	.	.	.	.	4a	.
.	.	.	.	1C	.	.	.	[1G	e-	.	.	.	.	.	.	2.e	.	.	.	.	.	1g	.
4F	.	.	.	.	.	.	.	.	.	.	.	.	.	.	.	.	.	.	.	.	.	.	.
2G	.	.	.	.	.	.	.	.	.	[2E	-lei-	.	.	.	.	.	.	[2cc	-lei-	4b	.	.	.
.	.	.	.	.	.	.	.	.	.	.	.	.	.	.	.	4f	.	.	.	4a	.	.	.
=94	=94	=94	=94	=94	=94	=94	=94	=94	=94	=94	=94	=94	=94	=94	=94	=94	=94	=94	=94	=94	=94	=94	=94
1C	.	[0Cl	-son.	1r	.	0c_	.	2G]	.	4E]	.	0e_	.	0G_	.	1g	.	2cc]	.	1g	.	[0eel	-son.
.	.	.	.	.	.	.	.	.	.	4F	.	.	.	.	.	.	.	.	.	.	.	.	.
.	.	.	.	.	.	.	.	2.E	-lei-	2G	.	.	.	.	.	.	.	4b	.	.	.	.	.
.	.	.	.	.	.	.	.	.	.	.	.	.	.	.	.	.	.	4a	.	.	.	.	.
1r	.	.	.	1C	.	.	.	.	.	1C	.	.	.	.	.	1r	.	1g	.	1cc	.	.	.
.	.	.	.	.	.	.	.	4F	.	.	.	.	.	.	.	.	.	.	.	.	.	.	.
.	.	.	.	.	.	.	.	2G	.	.	.	.	.	.	.	.	.	.	.	.	.	.	.
=95	=95	=95	=95	=95	=95	=95	=95	=95	=95	=95	=95	=95	=95	=95	=95	=95	=95	=95	=95	=95	=95	=95	=95
*	*	*	*	*^	*	*	*	*	*	*	*	*	*	*	*	*	*	*	*	*	*	*	*
0El	-son.	0C]	.	0Cl	0El	-son.	0c]	e	0El	.	0Gl	-son.	0e]	.	0G]	.	0el	-son.	0gl	-son.	0ccl	-son.	0ee]	.
*	*	*	*	*v	*v	*	*	*	*	*	*	*	*	*	*	*	*	*	*	*	*	*	*	*
!!LO:LB:i:g=z
=96||	=96||	=96||	=96||	=96||	=96||	=96||	=96||	=96||	=96||	=96||	=96||	=96||	=96||	=96||	=96||	=96||	=96||	=96||	=96||	=96||	=96||	=96||	=96||
*>C	*>C	*>C	*>C	*>C	*>C	*>C	*>C	*>C	*>C	*>C	*>C	*>C	*>C	*>C	*>C	*>C	*>C	*>C	*>C	*>C	*>C	*>C	*>C
*clefF4	*	*clefF4	*	*clefF4	*	*clefGv2	*	*clefGv2	*	*clefGv2	*	*clefGv2	*	*clefGv2	*	*clefGv2	*	*clefG2	*	*clefG2	*	*clefG2	*
*k[]	*	*k[]	*	*k[]	*	*k[]	*	*k[]	*	*k[]	*	*k[]	*	*k[]	*	*k[]	*	*k[]	*	*k[]	*	*k[]	*
*M3/1	*	*M3/1	*	*M3/1	*	*M3/1	*	*M3/1	*	*M3/1	*	*M3/1	*	*M3/1	*	*M3/1	*	*M3/1	*	*M3/1	*	*M3/1	*
*met(O|)	*	*met(O|)	*	*met(O|)	*	*met(O|)	*	*met(O|)	*	*met(O|)	*	*met(O|)	*	*met(O|)	*	*met(O|)	*	*met(O|)	*	*met(O|)	*	*met(O|)	*
!!section: Kyrie II
!!!OMD: Kyrie II
1D	-Ky-	0.GG	Ky-	2.GG	Ky-	0G	Ky-	2G	-Ky-	[0.d	Ky-	2.B	Ky-	1D	Ky-	1d	Ky-	2.g	Ky-	1.b	Ky-	1.dd	Ky-
.	.	.	.	.	.	.	.	2.B	.	.	.	.	.	.	.	.	.	.	.	.	.	.	.
.	.	.	.	4AA	.	.	.	.	.	.	.	4c	-ri-	.	.	.	.	4f	.	.	.	.	.
2.GG	-ri-	.	.	2.BB	-ri-	.	.	.	.	.	.	1d	-e	2D	-ri-	2.g	-ri-	2g	.	.	.	.	.
.	.	.	.	.	.	.	.	4c	-ri-	.	.	.	.	.	.	.	.	.	.	.	.	.	.
.	.	.	.	.	.	.	.	1d	-e	.	.	.	.	2.G	-e	.	.	2d	-ri-	1g	-ri-	1b	-ri-
4AA	.	.	.	4C	.	.	.	.	.	.	.	.	.	.	.	4f	.	.	.	.	.	.	.
2.BB	-e	.	.	2.D	-e	1D	-rie	.	.	.	.	2G	e-	.	.	2g	-e	1g	-e	.	.	.	.
.	.	.	.	.	.	.	.	.	.	.	.	.	.	4F	.	.	.	.	.	.	.	.	.
.	.	.	.	.	.	.	.	4c	.	.	.	[2d	-lei-	2G	.	2d	.	.	.	4f	.	4a	.
4C	.	.	.	4E	.	.	.	4B	.	.	.	.	.	.	.	.	.	.	.	4e	.	4g	.
=97	=97	=97	=97	=97	=97	=97	=97	=97	=97	=97	=97	=97	=97	=97	=97	=97	=97	=97	=97	=97	=97	=97	=97
2.D	e-	0D	-ri-	2.F	e-	2r	.	2A	e-	0.d_	.	2d]	.	2r	.	2r	.	2r	.	2d	-e e-	2f	-e e-
.	.	.	.	.	.	2.D	e-	1d	-lei-	.	.	4c	.	2D	e-	2A	e-	2f	e-	2.f	-lei-	2.a	-lei-
4E	.	.	.	4G	.	.	.	.	.	.	.	4B	.	.	.	.	.	.	.	.	.	.	.
2.F	.	.	.	2A	-lei-	.	.	.	.	.	.	1A	-son,	2.A	-lei-	2d	.	2d	.	.	.	.	.
.	.	.	.	.	.	4E	.	.	.	.	.	.	.	.	.	.	.	.	.	4g	.	4g	.
.	.	.	.	2D	.	1F	.	4c	.	.	.	.	.	.	.	2.d	-lei-	2.dd	-lei-	2a	.	4f#i	.
4G	.	.	.	.	.	.	.	4B	.	.	.	.	.	8BL	.	.	.	.	.	.	.	4e	.
.	.	.	.	.	.	.	.	.	.	.	.	.	.	8cJ	.	.	.	.	.	.	.	.	.
2A	-lei-	1D	-e	1D	-son,	.	.	1A	-son,	.	.	1r	.	1d	-son,	.	.	.	.	2d	-son,	1f#i	.
.	.	.	.	.	.	.	.	.	.	.	.	.	.	.	.	4e	.	4cc	.	.	.	.	.
2D	-son,	.	.	.	.	2D	-lei-	.	.	.	.	.	.	.	.	2f	.	2dd	-son,	2a	.	.	.
=98	=98	=98	=98	=98	=98	=98	=98	=98	=98	=98	=98	=98	=98	=98	=98	=98	=98	=98	=98	=98	=98	=98	=98
2r	.	2.GG	e-	2r	.	1D	-son,	2.B	Ky-	0.d_	.	2G	Ky-	2.d	Ky-	2d	-son,	2.b	Ky-	1.dd	Ky-	1g	-son,
1D	Ky-	.	.	2D	Ky-	.	.	.	.	.	.	2.B	.	.	.	1g	Ky-	.	.	.	.	.	.
.	.	4AA	.	.	.	.	.	4c	-ri-	.	.	.	.	4c	.	.	.	4a	.	.	.	.	.
.	.	2.BB	.	0GG	-ri-	2.G	Ky-	1d	-e	.	.	.	.	4B	.	.	.	2g	.	.	.	0dd	.
.	.	.	.	.	.	.	.	.	.	.	.	4c	-ri-	4A	.	.	.	.	.	.	.	.	.
1.G	-ri-	.	.	.	.	.	.	.	.	.	.	1d	-e	2.G	.	4f	-ri-	2d	-ri-	1b	-ri-	.	.
.	.	4C	.	.	.	4A	.	.	.	.	.	.	.	.	.	4e	.	.	.	.	.	.	.
.	.	2.D	.	.	.	2.B	.	2G	e-	.	.	.	.	.	.	2d	-e	1g	-e	.	.	.	.
.	.	.	.	.	.	.	.	.	.	.	.	.	.	4F	-ri-	.	.	.	.	.	.	.	.
.	.	.	.	.	.	.	.	[2d	-lei-	.	.	4c	.	2D	-e	2g	.	.	.	4a	.	.	.
.	.	4E	.	.	.	4c	-ri-	.	.	.	.	4B	.	.	.	.	.	.	.	4g	.	.	.
=99	=99	=99	=99	=99	=99	=99	=99	=99	=99	=99	=99	=99	=99	=99	=99	=99	=99	=99	=99	=99	=99	=99	=99
2D	-e e-	2.F	.	1D	-e	1d	-e	2d]	.	0.d]	.	2A	e-	2r	.	2r	.	2a	e-	2f	-e e-	2r	.
2.F	-lei-	.	.	.	.	.	.	4c	.	.	.	1d	-lei-	2A	e-	2d	e-	2f	.	2.a	-lei-	2.d	e-
.	.	4G	.	.	.	.	.	4B	.	.	.	.	.	.	.	.	.	.	.	.	.	.	.
.	.	2A	.	1D	e-	0D	e-	1A	-son,	.	.	.	.	1A	-lei-	1f	.	2d	.	.	.	.	.
4G	.	.	.	.	.	.	.	.	.	.	.	.	.	.	.	.	.	.	.	4g	.	4e	.
2A	.	2D	.	.	.	.	.	.	.	.	.	4c	.	.	.	.	.	2.dd	-lei-	4f#i	.	4f	.
.	.	.	.	.	.	.	.	.	.	.	.	4B	.	.	.	.	.	.	.	4e	.	4g	.
1D	-son,	1D	-lei-	1F	-lei-	.	.	2r	.	.	.	1A	.	1d	-son,	4f	-lei-	.	.	1f#i	.	2a	-lei-
.	.	.	.	.	.	.	.	.	.	.	.	.	.	.	.	4e	.	4cc	.	.	.	.	.
.	.	.	.	.	.	.	.	2A	e-	.	.	.	.	.	.	4d	.	2a	-son,	.	.	[2d	-son,
.	.	.	.	.	.	.	.	.	.	.	.	.	.	.	.	4c	.	.	.	.	.	.	.
=100	=100	=100	=100	=100	=100	=100	=100	=100	=100	=100	=100	=100	=100	=100	=100	=100	=100	=100	=100	=100	=100	=100	=100
2r	.	1GG	-son,	1D	-son,	2r	.	2B	.	[0.B	-ri-	1G	-son,	1.D	Ky-	0d	-son,	4dd	Ky-	2g	-son,	2d]	.
.	.	.	.	.	.	.	.	.	.	.	.	.	.	.	.	.	.	4cc	.	.	.	.	.
2D	Ky-	.	.	.	.	2G	-lei-	2.d	-lei-	.	.	.	.	.	.	.	.	4b	.	2d	Ky-	2.g	Ky-
.	.	.	.	.	.	.	.	.	.	.	.	.	.	.	.	.	.	4a	.	.	.	.	.
2GG	.	2r	.	2BB	e-	0G	-son,	.	.	.	.	2.d	Ky-	.	.	.	.	4g	.	2.g	.	.	.
.	.	.	.	.	.	.	.	4c	.	.	.	.	.	.	.	.	.	4f	.	.	.	4a	-ri-
1D	-ri-	1G	Ky-	1GG	-lei-	.	.	4B	.	.	.	.	.	1.B	-ri-	.	.	2g	-ri-	.	.	2b	-e
.	.	.	.	.	.	.	.	4A	.	.	.	4c	.	.	.	.	.	.	.	4a	-ri-	.	.
.	.	.	.	.	.	.	.	1G	-son,	.	.	4B	.	.	.	2.g	Ky-	2d	-e	2b	-e	2r	.
.	.	.	.	.	.	.	.	.	.	.	.	4A	.	.	.	.	.	.	.	.	.	.	.
4E	.	[2E	-ri-	[2G	.	.	.	.	.	.	.	[2G	-ri-	.	.	.	.	2g	e-	[2ee	e-	[2b	e-
4F	.	.	.	.	.	.	.	.	.	.	.	.	.	.	.	4f	-ri-	.	.	.	.	.	.
=101	=101	=101	=101	=101	=101	=101	=101	=101	=101	=101	=101	=101	=101	=101	=101	=101	=101	=101	=101	=101	=101	=101	=101
1G	-e	4E]	.	2G]	.	1r	.	2r	.	0.B]	.	4G]	.	1.G	-e e-	2e	-e,	2.g	-lei-	4ee]	.	4b]	.
.	.	4F	-e e-	.	.	.	.	.	.	.	.	4A	-e e-	.	.	.	.	.	.	4dd	.	4a	-lei-
.	.	2.G	-lei-	1GG	-son,	.	.	2d	Ky-	.	.	2.B	-lei-	.	.	2B	.	.	.	1dd	-lei-	4g	.
.	.	.	.	.	.	.	.	.	.	.	.	.	.	.	.	.	.	4a	.	.	.	4f	.
2r	.	.	.	.	.	2r	.	1B	-ri-	.	.	.	.	.	.	2r	.	1b	.	.	.	1g	-son,
.	.	4F	.	.	.	.	.	.	.	.	.	4A	.	.	.	.	.	.	.	.	.	.	.
1G	e-	4E	.	1G	Ky-	2G	Ky-	.	.	.	.	4G	.	2.B	-lei-	2.e	Ky-	.	.	2ee	.	.	.
.	.	4D	.	.	.	.	.	.	.	.	.	4F	.	.	.	.	.	.	.	.	.	.	.
.	.	1E	.	.	.	2E	.	1e	-e	.	.	1G	-son,	.	.	.	.	1g	-son,	1b	-son,	2r	.
.	.	.	.	.	.	.	.	.	.	.	.	.	.	4G	.	4f	-ri-	.	.	.	.	.	.
2E	.	.	.	2G	-ri-	2E	-ri-	.	.	.	.	.	.	2G	-son,	2g	-e	.	.	.	.	2g	Ky-
=102	=102	=102	=102	=102	=102	=102	=102	=102	=102	=102	=102	=102	=102	=102	=102	=102	=102	=102	=102	=102	=102	=102	=102
2.F	-lei-	1D	-son,	1A	-e	1.A	-e	2A	e-	[0.d	-e	2d	e-	1r	.	2r	.	1r	.	2r	.	2.f	.
.	.	.	.	.	.	.	.	1d	-lei-	.	.	2.f	-lei-	.	.	2.d	e-	.	.	1a	e-	.	.
4D	.	.	.	.	.	.	.	.	.	.	.	.	.	.	.	.	.	.	.	.	.	4g	-ri-
4F	.	2r	.	2D	e-	.	.	.	.	.	.	.	.	1A	Ky-	.	.	2r	.	.	.	2a	-e
4G	.	.	.	.	.	.	.	.	.	.	.	4e	.	.	.	4c	.	.	.	.	.	.	.
2A	-son,	2.D	e-	2.F	-lei-	2D	e-	4c	.	.	.	4d	.	.	.	2A	-lei-	1a	e-	2.f	-lei-	1dd	e-
.	.	.	.	.	.	.	.	4B	.	.	.	4c	.	.	.	.	.	.	.	.	.	.	.
2D	e-	.	.	.	.	1A	-lei-	1A	-son,	.	.	1d	.	1F	-ri-	1f	-son,	.	.	.	.	.	.
.	.	4E	.	4E	.	.	.	.	.	.	.	.	.	.	.	.	.	.	.	4g	.	.	.
[2A	-lei-	[2F	-lei-	4D	.	.	.	.	.	.	.	.	.	.	.	.	.	[2f	-lei-	2a	.	[2a	.
.	.	.	.	4C	.	.	.	.	.	.	.	.	.	.	.	.	.	.	.	.	.	.	.
=103	=103	=103	=103	=103	=103	=103	=103	=103	=103	=103	=103	=103	=103	=103	=103	=103	=103	=103	=103	=103	=103	=103	=103
4A]	.	4F]	.	1D	-son,	1F	.	2r	.	0.d]	.	1A	.	1D	-e	1.a	Ky-	4f]	.	1d	-son,	2a]	.
4G	.	4E	.	.	.	.	.	.	.	.	.	.	.	.	.	.	.	4g	.	.	.	.	.
4F	.	4D	.	.	.	.	.	1d	Ky-	.	.	.	.	.	.	.	.	2a	.	.	.	2.d	-lei-
4E	.	4C	.	.	.	.	.	.	.	.	.	.	.	.	.	.	.	.	.	.	.	.	.
2F	.	1D	.	1r	.	1A	.	.	.	.	.	1F	-son,	2.d	e-	.	.	1d	.	2r	.	.	.
.	.	.	.	.	.	.	.	.	.	.	.	.	.	.	.	.	.	.	.	.	.	4e	.
1D	-son,	.	.	.	.	.	.	2A	-ri-	.	.	.	.	.	.	2d	-ri-	.	.	1.dd	Ky-	2f	.
.	.	.	.	.	.	.	.	.	.	.	.	.	.	4c	.	.	.	.	.	.	.	.	.
.	.	1GG	.	1G	e-	1G	-son,	1B	-e	.	.	1D	.	2d	-lei-	1g	-e e-	1b	-son,	.	.	1g	.
2G	e-	.	.	.	.	.	.	.	.	.	.	.	.	2B	.	.	.	.	.	.	.	.	.
=104	=104	=104	=104	=104	=104	=104	=104	=104	=104	=104	=104	=104	=104	=104	=104	=104	=104	=104	=104	=104	=104	=104	=104
4G	-lei-	1C	-son,	2.E	-lei-	2r	.	1.c	e-	[0.e	e-	2.C	Ky-	1G	-son,	1.g	-lei-	2r	.	2g	-ri-	1g	-son,
4F	.	.	.	.	.	.	.	.	.	.	.	.	.	.	.	.	.	.	.	.	.	.	.
4E	.	.	.	.	.	2G	Ky-	.	.	.	.	.	.	.	.	.	.	1g	e-	1cc	-e e-	.	.
4D	.	.	.	4F	.	.	.	.	.	.	.	4D	-ri-	.	.	.	.	.	.	.	.	.	.
2.C	.	2r	.	2G	.	2E	.	.	.	.	.	1E	-e	2.c	Ky-	.	.	.	.	.	.	2r	.
.	.	2.AA	e-	1A	.	2C	-ri-	1c	-lei-	.	.	.	.	.	.	2e	.	2.c	-lei-	2.ee	-lei-	2cc	Ky-
8BBL	.	.	.	.	.	.	.	.	.	.	.	.	.	4d	-ri-	.	.	.	.	.	.	.	.
8AAJ	.	.	.	.	.	.	.	.	.	.	.	.	.	.	.	.	.	.	.	.	.	.	.
1E	-son,	.	.	.	.	[1c	-e e-	.	.	.	.	1C	e-	1e	-e	2a	.	.	.	.	.	2.cc	-ri-
.	.	4BB	.	.	.	.	.	.	.	.	.	.	.	.	.	.	.	4d	.	4dd	.	.	.
.	.	[2C	-lei-	4G	.	.	.	4B	.	.	.	.	.	.	.	2e	-son,	[2e	.	4cc	.	.	.
.	.	.	.	4F	.	.	.	4A	.	.	.	.	.	.	.	.	.	.	.	4b	.	4dd	.
=105	=105	=105	=105	=105	=105	=105	=105	=105	=105	=105	=105	=105	=105	=105	=105	=105	=105	=105	=105	=105	=105	=105	=105
2r	.	4C]	.	0.E	-son,	2c]	.	2G	-son,	0.e]	.	2.c	-lei-	2r	.	2r	.	4e]	.	0cc	.	1ee	-e
.	.	4BB	.	.	.	.	.	.	.	.	.	.	.	.	.	.	.	4c	.	.	.	.	.
2E	Ky-	4AA	.	.	.	1.e	-lei-	2A	e-	.	.	.	.	2A	e-	1a	Ky-	1c	.	.	.	.	.
.	.	4GG	.	.	.	.	.	.	.	.	.	4B	.	.	.	.	.	.	.	.	.	.	.
0C	-ri-	2.AA	.	.	.	.	.	2E	.	.	.	4A	.	2c	-lei-	.	.	.	.	.	.	2ee	e-
.	.	.	.	.	.	.	.	.	.	.	.	4G	.	.	.	.	.	.	.	.	.	.	.
.	.	.	.	.	.	.	.	2.c	-lei-	.	.	2A	.	2A	.	2.e	.	2c	-son,	.	.	2.ee	-lei-
.	.	4BB	.	.	.	.	.	.	.	.	.	.	.	.	.	.	.	.	.	.	.	.	.
.	.	1C	.	.	.	1c	-son,	.	.	.	.	2G	.	1E	-son,	.	.	2r	.	1g	-son,	.	.
.	.	.	.	.	.	.	.	4B	.	.	.	.	.	.	.	4f	-ri-	.	.	.	.	4dd	.
.	.	.	.	.	.	.	.	4G	.	.	.	2E	-son,	.	.	[2g	-e	[2g	Ky-	.	.	2cc	.
.	.	.	.	.	.	.	.	4A	.	.	.	.	.	.	.	.	.	.	.	.	.	.	.
=106	=106	=106	=106	=106	=106	=106	=106	=106	=106	=106	=106	=106	=106	=106	=106	=106	=106	=106	=106	=106	=106	=106	=106
2.D	-e e-	1GG	.	2r	.	2r	.	1B	.	[0.d	-lei-	1G	e-	2r	.	4g]	.	2g]	.	1dd	Ky-	1b	-son,
.	.	.	.	.	.	.	.	.	.	.	.	.	.	.	.	4f	.	.	.	.	.	.	.
.	.	.	.	2G	e-	2B	e-	.	.	.	.	.	.	1D	Ky-	2d	.	2g	-ri-	.	.	.	.
4E	.	.	.	.	.	.	.	.	.	.	.	.	.	.	.	.	.	.	.	.	.	.	.
2F	-lei-	2D	-son,	2F	-lei-	4d	-lei-	2A	-son,	.	.	2.D	-lei-	.	.	2r	.	2a	.	2r	.	2r	.
.	.	.	.	.	.	4c	.	.	.	.	.	.	.	.	.	.	.	.	.	.	.	.	.
2D	-son,	2GG	.	2G	.	4B	.	4r	.	.	.	.	.	2G	-ri-	2d	e-	2b	.	2b	-ri-	2g	e-
.	.	.	.	.	.	4G	.	4G	e-	.	.	4E	.	.	.	.	.	.	.	.	.	.	.
2r	.	2r	.	2D	-son,	1d	-son,	2A	-lei-	.	.	2F	.	2r	.	2.d	-lei-	2dd	-e	2a	-e	2f	-lei-
2D	e-	2GG	e-	2G	e-	.	.	2B	.	.	.	2D	-son,	[2d	-e	.	.	4r	.	4r	.	2g	.
.	.	.	.	.	.	.	.	.	.	.	.	.	.	.	.	4e	.	4b	e-	4g	e-	.	.
=107	=107	=107	=107	=107	=107	=107	=107	=107	=107	=107	=107	=107	=107	=107	=107	=107	=107	=107	=107	=107	=107	=107	=107
2.D	-lei-	2D	-lei-	2F	-lei-	2A	Ky-	2A	-son,	0.d]	.	2r	.	4d]	.	2f	.	2.dd	-le-	2a	-lei-	2d	-son,
.	.	.	.	.	.	.	.	.	.	.	.	.	.	4c	.	.	.	.	.	.	.	.	.
.	.	2GG	.	2G	.	4G	-ri-	4r	.	.	.	2D	e-	2B	.	2d	-son,	.	.	2b	.	2g	Ky-
4E	.	.	.	.	.	2d	-e	4G	e-	.	.	.	.	.	.	.	.	4dd	-i-	.	.	.	.
2F	.	2D	-son,	2D	-son,	.	.	2A	-lei-	.	.	2.D	-lei-	2d	.	2r	.	2dd	-son,	2a	-son,	2f	-ri-
.	.	.	.	.	.	4c	.	.	.	.	.	.	.	.	.	.	.	.	.	.	.	.	.
2D	-son,	2GG	.	2G	e-	4B	.	2B	.	.	.	.	.	4r	.	2d	e-	4r	.	4r	.	4g	-e e-
.	.	.	.	.	.	4G	.	.	.	.	.	4E	.	2d	e-	.	.	4b	e-	4g	e-	2g	-lei-
2r	.	2r	.	2D	-lei-	2d	.	2A	-son,	.	.	2F	.	.	.	2.d	-lei-	2.dd	-le-	2a	-lei-	.	.
.	.	.	.	.	.	.	.	.	.	.	.	.	.	4c	.	.	.	.	.	.	.	4f	.
2D	e-	2G	e-	2GG	.	4r	.	4r	.	.	.	2D	-son,	4B	.	.	.	.	.	2b	.	2g	.
.	.	.	.	.	.	[4d	e-	4G	e-	.	.	.	.	4G	.	4e	.	4dd	-i-	.	.	.	.
=108	=108	=108	=108	=108	=108	=108	=108	=108	=108	=108	=108	=108	=108	=108	=108	=108	=108	=108	=108	=108	=108	=108	=108
2.D	-lei-	2F	-lei-	2D	-son,	4d]	.	2A	-lei-	[0.d	-son,	2r	.	4r	.	2f	.	2dd	-son,	2a	-son,	2d	-son,
.	.	.	.	.	.	4c	.	.	.	.	.	.	.	4D	.	.	.	.	.	.	.	.	.
.	.	2G	.	2GG	.	4B	.	2B	.	.	.	2D	e-	2.d	.	2d	-son,	4r	.	4r	.	2g	e-
4E	.	.	.	.	.	4G	.	.	.	.	.	.	.	.	.	.	.	4b	e-	4g	e-	.	.
2F	.	2D	-son,	2r	.	2d	.	2A	-son,	.	.	2.D	-lei-	.	.	2r	.	2.dd	-le-	2a	-lei-	2f	-lei-
.	.	.	.	.	.	.	.	.	.	.	.	.	.	4c	.	.	.	.	.	.	.	.	.
2D	-son,	2G	e-	2GG	e-	4r	.	4r	.	.	.	.	.	4B	.	2d	e-	.	.	2b	.	2g	.
.	.	.	.	.	.	2d	.	4G	e-	.	.	4E	.	4G	.	.	.	4dd	-i-	.	.	.	.
2r	.	2F	-lei-	2D	-lei-	.	.	2A	-lei-	.	.	2F	.	4r	.	2.d	-lei-	2dd	-son,	2a	-son,	2d	-son,
.	.	.	.	.	.	4c	.	.	.	.	.	.	.	4D	.	.	.	.	.	.	.	.	.
2D	e-	2G	.	2GG	-son,	4B	.	2B	.	.	.	2D	-son,	[2d	.	.	.	4r	.	4r	.	2g	e-
.	.	.	.	.	.	4G	.	.	.	.	.	.	.	.	.	4e	.	4b	e-	4g	e-	.	.
=109	=109	=109	=109	=109	=109	=109	=109	=109	=109	=109	=109	=109	=109	=109	=109	=109	=109	=109	=109	=109	=109	=109	=109
2.D	-lei-	2D	-son,	2r	.	2d	.	2A	-son,	0.d]	.	2r	.	4d]	.	2f	.	2.dd	-le-	2a	-lei-	2f	-lei-
.	.	.	.	.	.	.	.	.	.	.	.	.	.	4c	.	.	.	.	.	.	.	.	.
.	.	2G	e-	2GG	e-	4r	.	4r	.	.	.	1D	Ky-	4B	.	2d	-son,	.	.	2b	.	2g	.
4E	.	.	.	.	.	2d	.	4G	e-	.	.	.	.	4G	.	.	.	4dd	-i-	.	.	.	.
2F	.	2F	-lei-	2D	-lei-	.	.	2A	-lei-	.	.	.	.	4r	.	2r	.	2dd	-son,	2a	.	1d	.
.	.	.	.	.	.	4c	.	.	.	.	.	.	.	4D	.	.	.	.	.	.	.	.	.
2D	-son,	2G	.	2GG	.	4B	.	2B	.	.	.	2D	-ri-	1d	.	2g	Ky-	4r	.	1g	.	.	.
.	.	.	.	.	.	4G	.	.	.	.	.	.	.	.	.	.	.	2dd	Ky-	.	.	.	.
2.F	e-	1D	.	2r	.	2d	.	1A	.	.	.	1A	-e e-	.	.	2a	-ri-	.	.	.	.	1dd	.
.	.	.	.	.	.	.	.	.	.	.	.	.	.	.	.	.	.	4cc	-ri-	.	.	.	.
.	.	.	.	2D	.	[2D	-lei-	.	.	.	.	.	.	[2d	-lei-	[2d	-e e-	2a	-e	2f#i	.	.	.
4E	.	.	.	.	.	.	.	.	.	.	.	.	.	.	.	.	.	.	.	.	.	.	.
=110	=110	=110	=110	=110	=110	=110	=110	=110	=110	=110	=110	=110	=110	=110	=110	=110	=110	=110	=110	=110	=110	=110	=110
1.D	-lei-	0.GG	-son,	1D	-son,	1D]	.	0.G	-son,	0.r	.	1.B	-le-	1d]	.	2d]	.	2r	.	0.g	-son,	0.b	-son,
.	.	.	.	.	.	.	.	.	.	.	.	.	.	.	.	2.g	-lei-	1dd	e-	.	.	.	.
.	.	.	.	1r	.	2.G	.	.	.	.	.	.	.	2.G	.	.	.	.	.	.	.	.	.
.	.	.	.	.	.	.	.	.	.	.	.	.	.	.	.	4f	.	.	.	.	.	.	.
2GG	.	.	.	.	.	.	.	.	.	.	.	2G	-i-	.	.	2d	.	2b	-lei-	.	.	.	.
.	.	.	.	.	.	4F	.	.	.	.	.	.	.	4A	.	.	.	.	.	.	.	.	.
1GG	-son,	.	.	1r	.	1D	-son,	.	.	.	.	1G	-son,	1B	-son,	1g	-son,	1b	-son,	.	.	.	.
=111	=111	=111	=111	=111	=111	=111	=111	=111	=111	=111	=111	=111	=111	=111	=111	=111	=111	=111	=111	=111	=111	=111	=111
0.r	.	0.r	.	1.D	Ky-	2r	.	0.r	.	0d	Ky-	2.A	Ky-	0.r	.	0.r	.	0.r	.	0.r	.	0.r	.
.	.	.	.	.	.	4D	Ky-	.	.	.	.	.	.	.	.	.	.	.	.	.	.	.	.
.	.	.	.	.	.	4E	.	.	.	.	.	4G	.	.	.	.	.	.	.	.	.	.	.
.	.	.	.	.	.	4F	.	.	.	.	.	2A	.	.	.	.	.	.	.	.	.	.	.
.	.	.	.	.	.	4D	.	.	.	.	.	.	.	.	.	.	.	.	.	.	.	.	.
.	.	.	.	2GG	-ri-	2G	.	.	.	.	.	2B	.	.	.	.	.	.	.	.	.	.	.
.	.	.	.	2D	-e	2F	-ri-	.	.	1d	-ri-	2A	-ri-	.	.	.	.	.	.	.	.	.	.
.	.	.	.	2GG	.	[2G	-e	.	.	.	.	[2B	-e	.	.	.	.	.	.	.	.	.	.
=112	=112	=112	=112	=112	=112	=112	=112	=112	=112	=112	=112	=112	=112	=112	=112	=112	=112	=112	=112	=112	=112	=112	=112
0.r	.	0.r	.	2r	.	2G]	.	0.r	.	0B	.	4B]	.	0.r	.	0.r	.	0.r	.	0.r	.	0.r	.
.	.	.	.	.	.	.	.	.	.	.	.	4c	.	.	.	.	.	.	.	.	.	.	.
.	.	.	.	2GG	e-	4F	.	.	.	.	.	2d	.	.	.	.	.	.	.	.	.	.	.
.	.	.	.	.	.	4E	.	.	.	.	.	.	.	.	.	.	.	.	.	.	.	.	.
.	.	.	.	2.GG	-lei-	2D	.	.	.	.	.	2r	.	.	.	.	.	.	.	.	.	.	.
.	.	.	.	.	.	1G	e-	.	.	.	.	2.d	e-	.	.	.	.	.	.	.	.	.	.
.	.	.	.	4AA	.	.	.	.	.	.	.	.	.	.	.	.	.	.	.	.	.	.	.
.	.	.	.	4BB	.	.	.	.	.	1d	-e	.	.	.	.	.	.	.	.	.	.	.	.
.	.	.	.	4C	.	.	.	.	.	.	.	4c	.	.	.	.	.	.	.	.	.	.	.
.	.	.	.	2D	.	2F	.	.	.	.	.	4A	.	.	.	.	.	.	.	.	.	.	.
.	.	.	.	.	.	.	.	.	.	.	.	4B	.	.	.	.	.	.	.	.	.	.	.
=113	=113	=113	=113	=113	=113	=113	=113	=113	=113	=113	=113	=113	=113	=113	=113	=113	=113	=113	=113	=113	=113	=113	=113
0.r	.	0.r	.	1C	.	2G	.	0.r	.	1e	.	1c	.	0.r	.	0.r	.	0.r	.	0.r	.	0.r	.
.	.	.	.	.	.	2E	.	.	.	.	.	.	.	.	.	.	.	.	.	.	.	.	.
.	.	.	.	2D	.	2F	-lei-	.	.	2d	e-	2A	-lei-	.	.	.	.	.	.	.	.	.	.
.	.	.	.	2GG	.	2G	.	.	.	1d	-le-	2B	.	.	.	.	.	.	.	.	.	.	.
.	.	.	.	1AA	.	1E	.	.	.	.	.	1A	.	.	.	.	.	.	.	.	.	.	.
.	.	.	.	.	.	.	.	.	.	2c#i	-i-	.	.	.	.	.	.	.	.	.	.	.	.
=114	=114	=114	=114	=114	=114	=114	=114	=114	=114	=114	=114	=114	=114	=114	=114	=114	=114	=114	=114	=114	=114	=114	=114
1r	.	1r	.	1D	-son,	1D	-son,	1r	.	1d	-son,	1A	-son,	1r	.	0.r	.	0.r	.	0.r	.	0.r	.
2r	.	2.GG	Ky-	1r	.	1r	.	0G	Ky-	1r	.	1r	.	2r	.	.	.	.	.	.	.	.	.
1D	Ky-	.	.	.	.	.	.	.	.	.	.	.	.	1d	Ky-	.	.	.	.	.	.	.	.
.	.	4AA	.	.	.	.	.	.	.	.	.	.	.	.	.	.	.	.	.	.	.	.	.
.	.	2BB	.	1r	.	1r	.	.	.	1r	.	1r	.	.	.	.	.	.	.	.	.	.	.
2E	.	2C	.	.	.	.	.	.	.	.	.	.	.	2c	.	.	.	.	.	.	.	.	.
=115	=115	=115	=115	=115	=115	=115	=115	=115	=115	=115	=115	=115	=115	=115	=115	=115	=115	=115	=115	=115	=115	=115	=115
2D	-ri-	2BB	-ri-	0.r	.	0.r	.	1G	-ri-	0.r	.	0.r	.	2d	.	0.r	.	0.r	.	0.r	.	0.r	.
2.E	-e	2.C	-e	.	.	.	.	.	.	.	.	.	.	2G	-ri-	.	.	.	.	.	.	.	.
.	.	.	.	.	.	.	.	0E	.	.	.	.	.	1c	-e	.	.	.	.	.	.	.	.
4D	.	4BB	.	.	.	.	.	.	.	.	.	.	.	.	.	.	.	.	.	.	.	.	.
4C	.	4AA	.	.	.	.	.	.	.	.	.	.	.	.	.	.	.	.	.	.	.	.	.
4BB	.	4GG	.	.	.	.	.	.	.	.	.	.	.	.	.	.	.	.	.	.	.	.	.
1C	.	1AA	.	.	.	.	.	.	.	.	.	.	.	2r	.	.	.	.	.	.	.	.	.
.	.	.	.	.	.	.	.	.	.	.	.	.	.	2A	e-	.	.	.	.	.	.	.	.
=116	=116	=116	=116	=116	=116	=116	=116	=116	=116	=116	=116	=116	=116	=116	=116	=116	=116	=116	=116	=116	=116	=116	=116
2D	e-	2GG	e-	0.r	.	0.r	.	1G	-e	0.r	.	0.r	.	2B	.	0.r	.	0.r	.	0.r	.	0.r	.
1E	.	1C	.	.	.	.	.	.	.	.	.	.	.	1c	.	.	.	.	.	.	.	.	.
.	.	.	.	.	.	.	.	1A	.	.	.	.	.	.	.	.	.	.	.	.	.	.	.
2C	.	2AA	.	.	.	.	.	.	.	.	.	.	.	2c	-lei-	.	.	.	.	.	.	.	.
2D	.	2BB	.	.	.	.	.	2G	e-	.	.	.	.	2B	.	.	.	.	.	.	.	.	.
2E	.	2C	.	.	.	.	.	[2G	-le-	.	.	.	.	2G	.	.	.	.	.	.	.	.	.
=117	=117	=117	=117	=117	=117	=117	=117	=117	=117	=117	=117	=117	=117	=117	=117	=117	=117	=117	=117	=117	=117	=117	=117
1C	-lei-	1AA	-lei-	0.r	.	0.r	.	2G]	.	0.r	.	0.r	.	1A	.	1r	.	1r	.	1r	.	1r	.
.	.	.	.	.	.	.	.	2F#i	-i-	.	.	.	.	.	.	.	.	.	.	.	.	.	.
1D	-son,	1GG	-son,	.	.	.	.	1G	-son,	.	.	.	.	1B	-son,	1r	.	1r	.	1r	.	1r	.
1r	.	1r	.	.	.	.	.	1r	.	.	.	.	.	1r	.	[1d	Ky-	2.a	Ky-	2.d	Ky-	[1dd	Ky-
.	.	.	.	.	.	.	.	.	.	.	.	.	.	.	.	.	.	4g	.	4e	.	.	.
=118	=118	=118	=118	=118	=118	=118	=118	=118	=118	=118	=118	=118	=118	=118	=118	=118	=118	=118	=118	=118	=118	=118	=118
0.r	.	0.r	.	0.r	.	0.r	.	0.r	.	0.r	.	0.r	.	0.r	.	2d]	.	2a	.	4f	.	1dd]	.
.	.	.	.	.	.	.	.	.	.	.	.	.	.	.	.	.	.	.	.	4d	.	.	.
.	.	.	.	.	.	.	.	.	.	.	.	.	.	.	.	2G	-ri-	2b	.	2g	.	.	.
.	.	.	.	.	.	.	.	.	.	.	.	.	.	.	.	2d	-e	2a	-ri-	2f	-ri-	1dd	-ri-
.	.	.	.	.	.	.	.	.	.	.	.	.	.	.	.	2G	.	2.b	-e	1g	-e	.	.
.	.	.	.	.	.	.	.	.	.	.	.	.	.	.	.	2r	.	.	.	.	.	[1b	.
.	.	.	.	.	.	.	.	.	.	.	.	.	.	.	.	.	.	4cc	.	.	.	.	.
.	.	.	.	.	.	.	.	.	.	.	.	.	.	.	.	2G	e-	2dd	.	4f	.	.	.
.	.	.	.	.	.	.	.	.	.	.	.	.	.	.	.	.	.	.	.	4e	.	.	.
=119	=119	=119	=119	=119	=119	=119	=119	=119	=119	=119	=119	=119	=119	=119	=119	=119	=119	=119	=119	=119	=119	=119	=119
0.r	.	0.r	.	0.r	.	0.r	.	0.r	.	0.r	.	0.r	.	0.r	.	2.G	-lei-	2r	.	2d	.	1b]	.
.	.	.	.	.	.	.	.	.	.	.	.	.	.	.	.	.	.	2.dd	e-	1g	e-	.	.
.	.	.	.	.	.	.	.	.	.	.	.	.	.	.	.	4A	.	.	.	.	.	.	.
.	.	.	.	.	.	.	.	.	.	.	.	.	.	.	.	4B	.	.	.	.	.	1dd	-e
.	.	.	.	.	.	.	.	.	.	.	.	.	.	.	.	4c	.	4cc	.	.	.	.	.
.	.	.	.	.	.	.	.	.	.	.	.	.	.	.	.	2d	.	4a	.	2f	.	.	.
.	.	.	.	.	.	.	.	.	.	.	.	.	.	.	.	.	.	4b	.	.	.	.	.
.	.	.	.	.	.	.	.	.	.	.	.	.	.	.	.	1c	.	1cc	.	2g	.	1ee	.
.	.	.	.	.	.	.	.	.	.	.	.	.	.	.	.	.	.	.	.	2e	.	.	.
=120	=120	=120	=120	=120	=120	=120	=120	=120	=120	=120	=120	=120	=120	=120	=120	=120	=120	=120	=120	=120	=120	=120	=120
0.r	.	0.r	.	0.r	.	0.r	.	0.r	.	0.r	.	0.r	.	0.r	.	2d	.	2a	-lei-	2f	-lei-	2dd	e-
.	.	.	.	.	.	.	.	.	.	.	.	.	.	.	.	2G	.	2b	.	2g	.	1dd	-le-
.	.	.	.	.	.	.	.	.	.	.	.	.	.	.	.	1A	-son,	1a	.	1e	.	.	.
.	.	.	.	.	.	.	.	.	.	.	.	.	.	.	.	.	.	.	.	.	.	2cc#i	-i-
.	.	.	.	.	.	.	.	.	.	.	.	.	.	.	.	[1d	Ky-	1a	-son,	1d	-son,	1dd	-son,
=121	=121	=121	=121	=121	=121	=121	=121	=121	=121	=121	=121	=121	=121	=121	=121	=121	=121	=121	=121	=121	=121	=121	=121
1D	Ky-	[0.GG	Ky-	0D	Ky-	1.d	Ky-	0d	Ky-	2.B	Ky-	0G	Ky-	1G	Ky-	2d]	.	1dd	.	2r	.	2b	Ky-
.	.	.	.	.	.	.	.	.	.	.	.	.	.	.	.	2B	-ri-	.	.	2.b	Ky-	2g	.
.	.	.	.	.	.	.	.	.	.	4c	-ri-	.	.	.	.	.	.	.	.	.	.	.	.
2BB	-ri-	.	.	.	.	.	.	.	.	2d	.	.	.	1D	-ri-	2G	-e e-	2r	.	.	.	2.b	.
.	.	.	.	.	.	.	.	.	.	.	.	.	.	.	.	.	.	.	.	4cc	-ri-	.	.
2GG	.	.	.	.	.	1.B	-ri-	.	.	1G	-e	.	.	.	.	2.B	-lei-	2.b	Ky-	2dd	-e	.	.
.	.	.	.	.	.	.	.	.	.	.	.	.	.	.	.	.	.	.	.	.	.	4cc	-ri-
2.BB	-e e-	.	.	1D	-ri-	.	.	2B	.	.	.	1D	-ri-	1G	-e	.	.	.	.	2g	e-	1dd	-e
.	.	.	.	.	.	.	.	.	.	.	.	.	.	.	.	4c	.	4g	.	.	.	.	.
.	.	.	.	.	.	.	.	2G	.	4F	.	.	.	.	.	2d	.	[2b	-ri-	[2dd	-lei-	.	.
4C	.	.	.	.	.	.	.	.	.	4E	.	.	.	.	.	.	.	.	.	.	.	.	.
=122	=122	=122	=122	=122	=122	=122	=122	=122	=122	=122	=122	=122	=122	=122	=122	=122	=122	=122	=122	=122	=122	=122	=122
2D	.	0.GG]	.	2BB	-e	2.G	-e	2.B	.	1D	.	1d	-e,	2G	e-	1g	-son,	4b]	.	4dd]	.	2g	e-
.	.	.	.	.	.	.	.	.	.	.	.	.	.	.	.	.	.	4cc	.	4cc	.	.	.
1G	-lei-	.	.	2GG	e-	.	.	.	.	.	.	.	.	2.B	-lei-	.	.	2dd	.	4b	.	2.dd	-lei-
.	.	.	.	.	.	8FL	.	4c	-ri-	.	.	.	.	.	.	.	.	.	.	4a	.	.	.
.	.	.	.	.	.	8EJ	.	.	.	.	.	.	.	.	.	.	.	.	.	.	.	.	.
.	.	.	.	2.BB	-lei-	2D	e-	1d	-e,	2G	e-	2r	.	.	.	2r	.	1g	-e,	2b	.	.	.
.	.	.	.	.	.	.	.	.	.	.	.	.	.	4c	.	.	.	.	.	.	.	4cc	.
4F	.	.	.	.	.	2.d	-lei-	.	.	2.B	-lei-	2.G	Ky-	2d	.	2.g	Ky-	.	.	2g	.	4b	.
4E	.	.	.	4C	.	.	.	.	.	.	.	.	.	.	.	.	.	.	.	.	.	4a	.
2D	-son,	.	.	1D	.	.	.	1G	.	.	.	.	.	2d	-son,	.	.	2r	.	1dd	-son,	1b	-son,
.	.	.	.	.	.	4c	.	.	.	4A	.	4A	-ri-	.	.	4f	-ri-	.	.	.	.	.	.
[2G	Ky-	.	.	.	.	2d	.	.	.	4G	.	2B	-e	[2G	Ky-	2d	-e	2g	Ky-	.	.	.	.
.	.	.	.	.	.	.	.	.	.	4F	.	.	.	.	.	.	.	.	.	.	.	.	.
=123	=123	=123	=123	=123	=123	=123	=123	=123	=123	=123	=123	=123	=123	=123	=123	=123	=123	=123	=123	=123	=123	=123	=123
1G]	.	[0.C	-ri-	0C	-son,	2G	-son,	2r	.	0G	-son,	2E	e-	2G]	.	2r	.	2e	.	1ee	Ky-	1cc	Ky-
.	.	.	.	.	.	2.e	Ky-	1G	Ky-	.	.	1c	-lei-	2G	-ri-	2g	e-	2c	.	.	.	.	.
2E	.	.	.	.	.	.	.	.	.	.	.	.	.	1.c	-e	2.g	-lei-	2.e	.	2ee	-ri-	2cc	-ri-
.	.	.	.	.	.	4f	-ri-	.	.	.	.	.	.	.	.	.	.	.	.	.	.	.	.
2C	-ri-	.	.	.	.	2g	-e	2E	.	.	.	4B	.	.	.	.	.	.	.	1ee	-e	1cc	-e
.	.	.	.	.	.	.	.	.	.	.	.	4A	.	.	.	4f	.	4f	-ri-	.	.	.	.
2.E	-e e-	.	.	1G	Ky-	2c	e-	2C	.	[1c	e-	1G	-son,	.	.	4e	.	1g	-e	.	.	.	.
.	.	.	.	.	.	.	.	.	.	.	.	.	.	.	.	4d	.	.	.	.	.	.	.
.	.	.	.	.	.	[2g	-lei-	[2E	.	.	.	.	.	2G	e-	2c	.	.	.	2ee	e-	4b	.
4F	.	.	.	.	.	.	.	.	.	.	.	.	.	.	.	.	.	.	.	.	.	4a	.
=124	=124	=124	=124	=124	=124	=124	=124	=124	=124	=124	=124	=124	=124	=124	=124	=124	=124	=124	=124	=124	=124	=124	=124
1G	-lei-	0.C]	.	2E	-ri-	4g]	.	4E]	.	0.c]	.	2r	.	4C	-lei-	2g	.	2r	.	2.cc	.	2g	e-
.	.	.	.	.	.	4f	.	4F	-ri-	.	.	.	.	4D	.	.	.	.	.	.	.	.	.
.	.	.	.	2C	-e e-	4e	.	2G	-e	.	.	2C	Ky-	4E	.	2c	-son,	2.g	e-	.	.	1ee	-lei-
.	.	.	.	.	.	4d	.	.	.	.	.	.	.	4F	.	.	.	.	.	8bL	.	.	.
.	.	.	.	.	.	.	.	.	.	.	.	.	.	.	.	.	.	.	.	8aJ	.	.	.
1C	-son,	.	.	2.E	-lei-	4e	.	2.c	e-	.	.	1G	.	2G	.	2r	.	.	.	1g	.	.	.
.	.	.	.	.	.	4f	.	.	.	.	.	.	.	.	.	.	.	4f	.	.	.	.	.
.	.	.	.	.	.	2g	.	.	.	.	.	.	.	2C	.	1.g	e-	4e	.	.	.	4dd	.
.	.	.	.	4F	.	.	.	8BL	.	.	.	.	.	.	.	.	.	4d	.	.	.	4cc	.
.	.	.	.	.	.	.	.	8AJ	.	.	.	.	.	.	.	.	.	.	.	.	.	.	.
1r	.	.	.	2G	.	1c	-son,	1G	-lei-	.	.	1E	-ri-	1G	-son,	.	.	1e	-lei-	1g	-lei-	1cc	-son,
.	.	.	.	2C	-son,	.	.	.	.	.	.	.	.	.	.	.	.	.	.	.	.	.	.
=125	=125	=125	=125	=125	=125	=125	=125	=125	=125	=125	=125	=125	=125	=125	=125	=125	=125	=125	=125	=125	=125	=125	=125
0.C	Ky-	[0.FF	-e	1C	Ky-	2r	.	1F	-son,	1c	-lei-	2C	-e	2r	.	2.a	-lei-	1f	-son,	0cc	-son,	2a	Ky-
.	.	.	.	.	.	1f	e-	.	.	.	.	2.F	e-	1c	Ky-	.	.	.	.	.	.	2f	.
.	.	.	.	.	.	.	.	.	.	.	.	.	.	.	.	4g	.	.	.	.	.	.	.
.	.	.	.	2AA	-ri-	.	.	1c	Ky-	1F	.	.	.	.	.	4f	.	2r	.	.	.	2.a	.
.	.	.	.	.	.	.	.	.	.	.	.	4G	.	.	.	4e	.	.	.	.	.	.	.
.	.	.	.	2FF	-e e-	4e	.	.	.	.	.	2.A	.	2A	-ri-	1f	.	1cc	Ky-	.	.	.	.
.	.	.	.	.	.	4d	.	.	.	.	.	.	.	.	.	.	.	.	.	.	.	4b	-ri-
.	.	.	.	2.AA	-lei-	[1c	.	2A	.	2F	-son,	.	.	1F	-e	.	.	.	.	2r	.	1cc	-e
.	.	.	.	.	.	.	.	.	.	.	.	4B	.	.	.	.	.	.	.	.	.	.	.
.	.	.	.	.	.	.	.	2F	.	[2A	Ky-	2c	.	.	.	4e	.	2a	.	2cc	-Ky-	.	.
.	.	.	.	4BB	.	.	.	.	.	.	.	.	.	.	.	4d	.	.	.	.	.	.	.
=126	=126	=126	=126	=126	=126	=126	=126	=126	=126	=126	=126	=126	=126	=126	=126	=126	=126	=126	=126	=126	=126	=126	=126
0F	.	0.FF]	.	0.C	-son,	2c]	.	2.A	.	4A]	.	2.F	-lei-	2r	.	1c	.	2f	.	2a	.	2r	.
.	.	.	.	.	.	.	.	.	.	4B	-ri-	.	.	.	.	.	.	.	.	.	.	.	.
.	.	.	.	.	.	1f	-lei-	.	.	2c	-e	.	.	1C	e-	.	.	2.a	.	2f	.	2.cc	e-
.	.	.	.	.	.	.	.	4B	-ri-	.	.	8EL	.	.	.	.	.	.	.	.	.	.	.
.	.	.	.	.	.	.	.	.	.	.	.	8DJ	.	.	.	.	.	.	.	.	.	.	.
.	.	.	.	.	.	.	.	1c	-e	1F	.	1C	-son,	.	.	0f	-son,	.	.	2.a	.	.	.
.	.	.	.	.	.	.	.	.	.	.	.	.	.	.	.	.	.	4b	-ri-	.	.	4b	.
.	.	.	.	.	.	4e	.	.	.	.	.	.	.	2C	-lei-	.	.	1cc	-e	.	.	4a	.
.	.	.	.	.	.	4d	.	.	.	.	.	.	.	.	.	.	.	.	.	4b	-ri-	4g	.
1F	-ri-	.	.	.	.	1c	-son,	1A	e-	1c	.	1r	.	2F	.	.	.	.	.	1cc	-e	2f	-lei-
.	.	.	.	.	.	.	.	.	.	.	.	.	.	2C	.	.	.	2a	e-	.	.	2a	-son,
=127	=127	=127	=127	=127	=127	=127	=127	=127	=127	=127	=127	=127	=127	=127	=127	=127	=127	=127	=127	=127	=127	=127	=127
1.D	-e	0.GG	e-	2BB	Ky-	2r	.	1G	-lei-	1r	.	2r	.	1G	-son,	2r	.	2b	.	2g	e-	2.dd	Ky-
.	.	.	.	2GG	.	2B	Ky-	.	.	.	.	1G	Ky-	.	.	2d	Ky-	1dd	-lei-	2.b	-lei-	.	.
.	.	.	.	.	.	.	.	.	.	.	.	.	.	.	.	.	.	.	.	.	.	4cc	.
.	.	.	.	2.BB	.	2.G	.	1d	-son,	1r	.	.	.	1D	.	2.g	.	.	.	.	.	4b	-ri-
.	.	.	.	.	.	.	.	.	.	.	.	.	.	.	.	.	.	.	.	4cc	.	4a	.
1G	e-	.	.	.	.	.	.	.	.	.	.	2D	-ri-	.	.	.	.	2g	.	2dd	.	1b	-e
.	.	.	.	4C	-ri-	4A	-ri-	.	.	.	.	.	.	.	.	4f	-ri-	.	.	.	.	.	.
.	.	.	.	2.D	-e	2.B	-e	2B	e-	1d	e-	1G	-e	1r	.	1d	-e	1dd	-son,	1g	-son,	.	.
4F	.	.	.	.	.	.	.	[2d	-lei-	.	.	.	.	.	.	.	.	.	.	.	.	4a	.
4E	.	.	.	4E	.	4A	.	.	.	.	.	.	.	.	.	.	.	.	.	.	.	4g	.
=128	=128	=128	=128	=128	=128	=128	=128	=128	=128	=128	=128	=128	=128	=128	=128	=128	=128	=128	=128	=128	=128	=128	=128
2D	.	0.D	.	2F	.	1A	e-	2d]	.	[0.d	-lei-	2r	.	2.F	e-	2r	.	1r	.	2a	Ky-	2f	.
2.F	-lei-	.	.	2D	e-	.	.	4c	.	.	.	2.d	e-	.	.	2.f	e-	.	.	1dd	.	2.a	e-
.	.	.	.	.	.	.	.	4B	.	.	.	.	.	4G	.	.	.	.	.	.	.	.	.
.	.	.	.	2.F	-lei-	1D	-lei-	0A	-son,	.	.	.	.	2A	-lei-	.	.	0a	e-	.	.	.	.
4G	.	.	.	.	.	.	.	.	.	.	.	4e	.	.	.	4e	.	.	.	.	.	4g	.
2A	.	.	.	.	.	.	.	.	.	.	.	2.f	-lei-	2D	.	4d	.	.	.	2dd	-ri-	4f	.
.	.	.	.	4G	.	.	.	.	.	.	.	.	.	.	.	4c	.	.	.	.	.	4e	.
1D	.	.	.	2A	.	1F	.	.	.	.	.	.	.	1A	-son,	1d	-lei-	.	.	2a	-e e-	1f	-lei-
.	.	.	.	.	.	.	.	.	.	.	.	4e	.	.	.	.	.	.	.	.	.	.	.
.	.	.	.	[2D	.	.	.	.	.	.	.	4d	.	.	.	.	.	.	.	[2dd	-lei-	.	.
.	.	.	.	.	.	.	.	.	.	.	.	4c	.	.	.	.	.	.	.	.	.	.	.
=129	=129	=129	=129	=129	=129	=129	=129	=129	=129	=129	=129	=129	=129	=129	=129	=129	=129	=129	=129	=129	=129	=129	=129
1G	-son,	0GG	-lei-	1D]	.	1D	.	2r	.	0.d]	.	2B	-son,	2r	.	1.d	-son,	2.b	-lei-	4dd]	.	1g	-son,
.	.	.	.	.	.	.	.	.	.	.	.	.	.	.	.	.	.	.	.	4cc	.	.	.
.	.	.	.	.	.	.	.	2G	Ky-	.	.	1G	Ky-	2d	Ky-	.	.	.	.	4b	.	.	.
.	.	.	.	.	.	.	.	.	.	.	.	.	.	.	.	.	.	4cc	.	4a	.	.	.
1D	.	.	.	1G	-son,	2D	-son,	2.B	.	.	.	.	.	2B	.	.	.	[0dd	-son,	1g	-son,	2r	.
.	.	.	.	.	.	2.B	Ky-	.	.	.	.	2D	-ri-	2G	-ri-	1.g	e-	.	.	.	.	2g	Ky-
.	.	.	.	.	.	.	.	4A	-ri-	.	.	.	.	.	.	.	.	.	.	.	.	.	.
1r	.	1GG	-son,	1D	.	.	.	1G	-e	.	.	1G	-e	1d	-e	.	.	.	.	2r	.	1b	-ri-
.	.	.	.	.	.	4G	-ri-	.	.	.	.	.	.	.	.	.	.	.	.	.	.	.	.
.	.	.	.	.	.	2G	-e	.	.	.	.	.	.	.	.	.	.	.	.	[2dd	e-	.	.
=130	=130	=130	=130	=130	=130	=130	=130	=130	=130	=130	=130	=130	=130	=130	=130	=130	=130	=130	=130	=130	=130	=130	=130
2.D	e-	1r	.	2r	.	2A	e-	1r	.	[0.dl	-son.	4D	e-	2r	.	2.f	-lei-	1dd]	.	4dd]	.	2a	-e
.	.	.	.	.	.	.	.	.	.	.	.	4E	.	.	.	.	.	.	.	4cc	.	.	.
.	.	.	.	2D	e-	2.F	-le-	.	.	.	.	4F	.	2d	e-	.	.	.	.	2b	.	2.dd	e-
4E	.	.	.	.	.	.	.	.	.	.	.	4G	.	.	.	4d	.	.	.	.	.	.	.
2F	-lei-	2r	.	2D	-lei-	.	.	2.D	e-	.	.	2A	-lei-	2A	-lei-	2d	-son,	2r	.	2a	-lei-	.	.
.	.	.	.	.	.	4D	-i-	.	.	.	.	.	.	.	.	.	.	.	.	.	.	4cc	.
2G	-son,	2D	e-	2GG	-son,	2D	-son,	.	.	.	.	4B	.	2d	.	4r	.	2.dd	e-	2g	.	2b	.
.	.	.	.	.	.	.	.	4E	.	.	.	4c	.	.	.	4G	e-	.	.	.	.	.	.
2.D	e-	2D	-lei-	2r	.	4r	.	2F	-lei-	.	.	2d	-son,	1D	-son,	2A	-lei-	.	.	2f	-son,	2a	-lei-
.	.	.	.	.	.	4A	e-	.	.	.	.	.	.	.	.	.	.	4cc	.	.	.	.	.
.	.	2GG	-son,	2D	e-	2d	.	2G	-son,	.	.	4r	.	.	.	4B	.	2b	.	[2dd	e-	2g	.
4E	.	.	.	.	.	.	.	.	.	.	.	4G	e-	.	.	4c	.	.	.	.	.	.	.
=131	=131	=131	=131	=131	=131	=131	=131	=131	=131	=131	=131	=131	=131	=131	=131	=131	=131	=131	=131	=131	=131	=131	=131
2F	-lei-	2r	.	2D	-lei-	4r	.	2.D	e-	0.d_	.	2A	-lei-	1r	.	2d	-son,	2a	-lei-	4dd]	.	2f	-son,
.	.	.	.	.	.	4A	.	.	.	.	.	.	.	.	.	.	.	.	.	4cc	.	.	.
2G	-son,	2D	e-	2GG	-son,	2d	.	.	.	.	.	4B	.	.	.	4r	.	2g	.	2b	.	2.dd	e-
.	.	.	.	.	.	.	.	4E	.	.	.	4c	.	.	.	4G	e-	.	.	.	.	.	.
2.D	e-	2D	-lei-	2r	.	4r	.	2F	-lei-	.	.	2d	-son,	2F	e-	2A	-lei-	2f	-son,	2a	-lei-	.	.
.	.	.	.	.	.	4A	.	.	.	.	.	.	.	.	.	.	.	.	.	.	.	4cc	.
.	.	2GG	-son,	2D	e-	2d	.	2G	-son,	.	.	4r	.	2D	-lei-	4B	.	2.dd	e-	2g	.	2b	.
4E	.	.	.	.	.	.	.	.	.	.	.	4G	e-	.	.	4c	.	.	.	.	.	.	.
2F	-lei-	2r	.	2D	-lei-	4r	.	2.D	e-	.	.	2A	-lei-	1D	-son,	2d	-son,	.	.	2f	-son,	2a	-lei-
.	.	.	.	.	.	4A	.	.	.	.	.	.	.	.	.	.	.	4cc	.	.	.	.	.
2G	-son,	2D	e-	2GG	-son,	2d	.	.	.	.	.	4B	.	.	.	4r	.	2b	.	[2dd	e-	2g	.
.	.	.	.	.	.	.	.	4E	.	.	.	4c	.	.	.	4G	e-	.	.	.	.	.	.
=132	=132	=132	=132	=132	=132	=132	=132	=132	=132	=132	=132	=132	=132	=132	=132	=132	=132	=132	=132	=132	=132	=132	=132
2.D	e-	2D	-lei-	2r	.	4r	.	2F	-lei-	0.d_	.	2d	-son,	1r	.	2A	-lei-	2a	-lei-	4dd]	.	2f	-son,
.	.	.	.	.	.	4A	.	.	.	.	.	.	.	.	.	.	.	.	.	4cc	.	.	.
.	.	2GG	-son,	2D	e-	2d	.	2G	-son,	.	.	4r	.	.	.	4B	.	2g	.	2b	.	2.dd	e-
4E	.	.	.	.	.	.	.	.	.	.	.	4G	e-	.	.	4c	.	.	.	.	.	.	.
2F	-lei-	2r	.	2D	-lei-	4r	.	2.D	e-	.	.	2A	-lei-	2F	e-	2d	-son,	2f	.	2a	-lei-	.	.
.	.	.	.	.	.	4A	.	.	.	.	.	.	.	.	.	.	.	.	.	.	.	4cc	.
2G	.	2D	e-	2GG	-son,	2d	.	.	.	.	.	4B	.	2D	.	4r	.	1.dd	.	2.g	.	2b	.
.	.	.	.	.	.	.	.	4E	.	.	.	4c	.	.	.	4G	e-	.	.	.	.	.	.
1D	.	1D	-lei-	2r	.	4r	.	1F	.	.	.	2d	-son,	1D	-lei-	2A	-lei-	.	.	.	.	1a	-lei-
.	.	.	.	.	.	4A	.	.	.	.	.	.	.	.	.	.	.	.	.	4f#i	.	.	.
.	.	.	.	2D	e-	2d	.	.	.	.	.	[2d	e-	.	.	4B	.	.	.	4f#i	.	.	.
.	.	.	.	.	.	.	.	.	.	.	.	.	.	.	.	4c	.	.	.	4e	.	.	.
=133	=133	=133	=133	=133	=133	=133	=133	=133	=133	=133	=133	=133	=133	=133	=133	=133	=133	=133	=133	=133	=133	=133	=133
1r	.	1GG	-son.	1D	-lei-	2.B	-le-	1D	-lei-	0.d]	.	2d]	.	1r	.	0.dl	-son.	0.ddl	-son.	0.gl	-son.	0.bl	-son.
.	.	.	.	.	.	.	.	.	.	.	.	2B	-lei-	.	.	.	.	.	.	.	.	.	.
.	.	.	.	.	.	4G	-i-	.	.	.	.	.	.	.	.	.	.	.	.	.	.	.	.
0Dl	-son.	0Dl	.	0GGl	-son.	0Gl	-son.	0Gl	-son.	.	.	0Bl	-son.	0dl	-son.	.	.	.	.	.	.	.	.
==	==	==	==	==	==	==	==	==	==	==	==	==	==	==	==	==	==	==	==	==	==	==	==
*-	*-	*-	*-	*-	*-	*-	*-	*-	*-	*-	*-	*-	*-	*-	*-	*-	*-	*-	*-	*-	*-	*-	*-
!!!RDF**kern: l=long note in original notation
!!!RDF**kern: i=editorial accidental
!!!ENC:	Philip Legge
!!!END:	2014/06/20/
!!!EED:	Jesse Rodin
!!!EEV:	2014/08/16/
!!!ONB:	Translated from MusicXML and edited on 2014/08/16/ by Craig Sapp
!!muse2ps: T^@{OPR}^u^@{ONM}{. }@{OTL}^C^@{COM}^i2I150v95,95,135,95,95,135,95,95,135,95,95,100z16Q1c140t200s^[(...)(...)(...)(...)]^
